IJ929/ws_moveit2/robot_data.csv
panda_joint1,panda_joint2,panda_joint3,panda_joint4,panda_joint5,panda_joint6,panda_joint7,pos_x,pos_y,pos_z,quat_x,quat_y,quat_z,quat_w
1.2389952181679198,1.0049443034123628,-0.6031786149279679,-0.610040458054212,-0.4341585733085407,1.5472272292338312,2.1039934273852965,0.4694733610315326,0.6111789285566432,0.47194998029448754,0.729669747032135,-0.5148398604985591,0.44951730932466805,0.02135806464535369
-0.5741006873200649,-0.08328997664228077,0.6540861137333791,-2.523307548261271,-0.5159586758396122,1.362677161428146,1.7565593571638218,0.32968430846574115,-0.036979572287931986,0.29437948261536834,0.6010694076131742,-0.5614698723632645,-0.0994458320182116,0.5599800676400302
-2.3543331611344125,-1.397536671984382,1.7320011211032518,-0.4848147311888402,-0.8523837330729234,0.03875054171308875,-0.34379742577373973,0.5382043108951892,0.25335169717643774,0.46876833651126176,0.5267690938183904,-0.5005357332970222,-0.3123105555668535,0.61191536863531
0.49463145509068873,0.05413433795794842,-2.5329364216316956,-2.570387806586595,2.1187801328002007,1.334737282062415,2.4124619130659846,-0.10499768398248492,-0.44606758631776117,0.37125025142234547,0.5011196719998492,0.14182123187301324,0.4154575941492537,0.7457618922876782
-0.3772656860760879,-0.06849024720489982,-0.7697187121111901,-2.6212755637266207,2.7376699248650573,1.9772338375891558,-2.5588121331068687,0.21330775440063054,-0.407243589757874,0.30278936709003057,0.5428588157253917,-0.36812727653690297,0.7421691408521764,0.13773736176321238
-1.3933519971567672,-1.5881190526116638,-1.680690489108581,-1.48754274119169,1.251145102817239,1.2602179124206303,1.5329276211767922,-0.5844404589621617,0.29663731005096783,0.39146106706592093,0.02575690354636265,0.17897278187676136,-0.6511262511877797,0.7371159544339987
-2.294916597779002,-0.6512759469704703,0.920420950038964,-1.6483658698074055,-1.1874288501120638,2.976445657017175,-2.39523782787784,0.3751021531615627,-0.34739277014550496,0.8260351410222976,-0.16224095378895922,-0.5586300258775405,0.7582627638464612,-0.2943602351976793
1.8082479132847857,0.3163490372696893,1.6249812419234773,-0.3513273706410778,0.40482516463077634,0.6653486298746429,-0.8604828214918729,-0.26524104973401935,0.07384580566299165,0.9563046252963936,-0.6372946327830481,0.7054605835846465,-0.18485957299629727,-0.24901376328620164
1.8534636778787248,0.3810923402002082,0.41592715366203326,-2.065081000470114,-0.6039386860527562,2.989567673355341,1.9019244000083764,-0.4219817881887112,0.463268630833806,0.3243821143423964,0.8673134421599039,0.4009586235131286,-0.08919446714276635,-0.2811475098774912
1.936034055235051,1.3053454775232822,2.0660068044586573,-0.34166889663024325,-2.8822289806073065,2.795343625866808,0.3152058192391416,-0.4446644672629104,0.6380307570368139,0.6571462636536457,-0.19746305435079092,-0.6048833900279573,-0.575677896605834,0.513536158409732
-2.1084370681073517,0.5087126671878619,-0.08134075117511674,-0.7077870298024034,1.9164389946017413,2.295230157056358,-1.7995748825672548,-0.35717324989991256,-0.5830182324991317,0.8335517985196087,0.4725958900425152,-0.2376229230917584,0.6043499686253171,0.5957764568685384
0.7855262678738217,-1.0454754899835215,2.2478488932557403,-0.5547377849906452,-2.8516209512474013,1.4866053273854776,1.7245110747410917,-0.6273003896266481,-0.41865408340644134,0.6728859495410712,0.05871642508169137,0.24561825053160236,-0.4943798175733525,0.8317527591824146
2.769805484477151,-0.5077311843886971,-0.43485150211448786,-2.002055040895706,2.165710643895855,2.154715248157736,-1.1383030404514634,-0.28265263990125056,0.34669252469744416,0.7736947125640778,-0.1803379524290421,-0.397873189310335,0.4247701589348609,0.7929347137187122
0.6929381637241692,-0.9338559335416182,0.15054708042880538,-2.4711444773715923,0.6158981690847316,3.4276827269094063,-1.3828442768753972,0.18799746894549454,0.16991217652724466,0.7820615741121335,0.4379284516100712,0.4132081727456482,0.7936010779929951,0.08760711303863596
-1.4903595434866845,-0.5579029976880177,-1.7732905373756773,-2.154290852078423,0.8696321152915711,1.689354284040164,-1.208347195644863,-0.5055384412105819,0.01876895108035681,0.37445090044843427,-0.2876606727041715,0.6792569965783627,-0.6584269293223242,-0.14944982007985394
-2.3531082934421024,1.0729527529818936,2.611585371054663,-0.3325265396086965,1.2250365856118504,2.8231758948322385,-0.991799746015342,-0.39419443165434903,-0.5661734989904673,0.8283636299014735,-0.24443647016459086,-0.11507899959804148,0.9307995364326797,-0.24621100479405414
0.9633191564973442,-1.6904713269179685,-0.8231438239125071,-1.1625775298324879,0.8287268643616699,3.173427787285764,-1.7976179604160134,-0.05994322616404252,-0.7744407294764825,0.52679079343297,0.19197148105274686,-0.4356571606566932,0.8772565433160305,0.061406400644987
-0.45984403697066023,-0.5160411664880813,0.01800866651078703,-2.0899096692116,2.6723972820165565,1.7924517142027616,1.074670048484998,0.38828531235761166,-0.13755457042047728,0.8050001347470026,-0.09565818797173224,0.2410775198572234,0.27477448506600716,0.9258672274414758
2.4657535834548994,-0.9154752712961286,2.2550182671152057,-1.7332762023352086,-1.4013319574065042,0.3175621755630709,2.4298319328922777,0.04128695328850341,-0.5222522757718392,0.40398415570099155,-0.36787923308895215,-0.04566740192156572,-0.11722977696374265,0.9213232536176702
-0.21968164379079846,-0.5328043015088886,-2.453592437363323,-2.9503580485340906,0.9601449003657327,2.2955013507138937,-0.4669165694423487,-0.10038444787100745,-0.1545134755042975,0.08377794822489125,0.02259809618972598,0.8112002520646959,-0.2793304611479896,0.513242604012591
-2.166321732629044,0.759660976780951,0.5571110160613899,-1.1718204585405765,-1.0215354055314325,1.4979879174334927,-2.0431145710819867,-0.24225711954769372,-0.683713288072332,0.3805317342425225,0.9118440990143918,0.21707345638833556,-0.25777475163986646,-0.23446029736665175
1.0010209379244595,1.355255950346589,-1.8705349652495236,-2.535624370418722,2.4513333073192745,0.8215603214525619,-0.5427153931346256,0.4403266623193161,-0.16116994783547356,0.40575718531836225,-0.7603278701163872,0.18501669890576425,-0.32476792015427147,0.5312213748419394
-0.8166242799284866,1.2017188922770319,-2.37023779708622,-0.7237383767093064,2.7189342457079326,3.1962980076670644,-0.370404857116053,0.16800188029330762,-0.5525274739386292,0.8745369378449862,0.1907930015288201,-0.30617159508037745,0.7810613075707704,0.5097060120789229
-0.645902484222455,1.1058587195573373,2.781683034344297,-2.607178157628537,-1.0983338937049265,3.055076404034626,1.3598416592383757,-0.13956959259669824,0.21651134200943895,0.6978187066620071,-0.4791454991018933,-0.5302123186304042,-0.10608589609773164,0.691404563560373
0.17399343154043878,1.683910655788332,-0.24603463561511596,-1.7239935008345173,-1.130726757102646,0.5660392806679011,2.0981145740638483,0.27930434748348554,-0.17291383742921262,-0.0789622552445766,0.12991859293577515,0.014523203843552171,0.10822706149103951,0.9854933479840042
-1.6195083145534155,0.7808421244645491,0.5089882707663347,-0.5068746230332413,1.6704151333819612,1.4795367983030154,2.269182376807463,0.17767209248563365,-0.6480325899345185,0.7777059866792554,-0.04513735459644382,0.5468454387072001,0.3078080749571362,0.7772881540177664
-0.46487092110342365,-0.7699295238068327,2.2181623728614768,-0.039678326889662774,-0.8047799693272917,2.431580125205219,-0.9850109973013867,-0.5224358641904026,0.2838978116216991,0.9286094782788002,-0.13719583360974372,0.43158722422414486,0.8779796327899584,0.15511781178393114
-2.1003761784681583,0.812613658421673,2.062485761474725,-0.24172267474492548,1.2428391233419531,1.628092450760305,2.3025992367950736,-0.1627875540388092,-0.4474426085126271,0.990206415339056,-0.32885062226846146,0.20213874031643483,0.22515745819802016,0.8945956164182436
1.3378689313240817,1.3772745218284426,-1.2601917956632096,-0.5761737449722828,2.2558473437494135,3.0798204515711403,-0.3515399729103317,0.4928879258593019,0.646453746966191,0.43782184600376056,0.7166913800667134,0.052888746683864715,0.49805853282326923,-0.48527718274632703
-0.8397688373395709,-1.541390150601603,-2.28342610315606,-1.9960003508872353,2.3512841286789157,3.727208561850712,-0.3231870342080949,-0.31087688755846915,-0.08792864897732594,-0.03811351523301986,0.8635710141731263,0.32966119950888917,0.032166628196320934,0.3801761500263241
2.7895815795068164,-0.9863078817704692,-2.2606907285696827,-0.3457063648318872,0.6523290575600229,0.6292818791302853,1.2631247288146992,0.6167230638685695,0.01233859067741401,0.6179129475218466,0.8132091208642274,-0.14638048909373536,-0.4754857352149152,-0.30195528437674457
-2.00299710438163,-0.3538759522458539,-1.5628520646668504,-0.04433687571345368,2.1450643417265733,2.677809917514678,-0.7847132678355089,0.09526327279115222,0.3020773566184295,1.109711597678857,0.092161427646989,0.050976893085840295,0.43588944629442256,0.8938165461852479
-1.6897023520284333,0.07332561446204777,1.6339424074411855,-1.4568741432939656,-2.8308384486326017,3.2306752334325575,-1.8028851192312314,0.5608792755523566,-0.028153243171261524,0.6977319440253806,-0.4447139341006643,0.5333189997360288,-0.4776955867921209,0.5381517329681315
-2.4363074605166912,-0.398066714035906,1.5586242181109262,-3.0507161480945304,-2.262378045290336,0.7222456599725411,-0.2609005488907452,0.09857476611255372,-0.287826447797446,0.34844545373329977,0.055550510086852314,0.18805973956549096,-0.8420122422778921,0.5025565232267979
0.527822029840527,1.323574175811745,-1.1594695046855603,-2.0054757420195966,-0.16719768877872276,3.0581465091370044,-1.5085287533449474,0.5392137500290725,-0.3178706725048288,0.14968832119343028,0.5548041940948341,0.6441934659040696,-0.3746476771879852,0.36992729377396744
2.634302245952981,0.948049310159683,1.5818278417664113,-2.6296136026015504,-0.6082799039102627,2.6840672751073726,-2.8696624050553887,-0.13869928096348125,-0.4160745263443323,0.30305377894272134,0.752502403718992,0.5617687128341603,0.076809996523894,0.3350466685579626
-2.561054182779649,-0.5341265478400514,-2.779730491567869,-2.995667862661206,0.8810407023837326,1.6365032566501758,0.7623583200680559,-0.04433513165176892,0.13009918682533728,0.13252799963378564,-0.5342472598130139,0.25617429759761323,0.7162811702679392,-0.3686405834308628
0.6119307334309445,-0.03859885657690465,1.4373842984433751,-1.0543691218548918,0.4650563605086413,0.7422926915041171,2.675856842409726,-0.2622881854154597,0.3337328427895768,0.7936256447392702,0.9614388559572079,-0.1631409947854964,-0.00566235692885769,0.22133296137291483
-2.587295047228318,1.083790526621975,-0.09793073769863714,-2.4324702618800336,-2.4650445605139715,1.6078266373090446,1.3214467844077382,-0.308497860800067,-0.055622602508661224,-0.08689309308047419,0.6459908000062055,-0.46278342393271404,-0.5615677657262294,0.23058411336800116
1.6572923650863118,1.7361468356542287,-0.6726369363225997,-3.0235044888338773,2.0038013362261933,1.872058967121411,1.4944144910837527,0.1221426705231545,-0.19463792864274987,0.12128660055349051,-0.13929097588550138,0.9452890735617836,-0.1902691429854329,-0.22544233113849443
-0.18789629250192075,1.4414291969362645,-1.0849099860515445,-0.184222399344947,0.49363999080667265,3.5459842202602885,-2.212023999083787,0.7615339480389959,-0.15173748238608545,0.49684996834392037,0.1173530486493801,0.5497468897117227,0.076487634426947,0.8235024353362611
-2.6883707507852463,0.4409448812574146,2.872277492195321,-0.8504652457949704,-0.8843187777609565,2.461407501262147,-1.009271076997975,0.10072787603161228,-0.07441358134105963,1.160074859606172,0.4641542983045324,0.20365634316170494,0.5501681743043819,0.6636262963732015
-1.7614107060782145,-0.6075690908040852,2.4934374033347706,-0.3774717675258872,1.0770393091472332,1.252157354047522,2.647990490565402,0.15993924534157358,0.5978906571951021,0.7896140516479272,0.7709910305165567,-0.5534056552051921,-0.3090566188436436,-0.0616361744340515
1.1053826701594516,1.5074735070666296,-2.00714417805071,-1.2100024128062883,-0.01147694230624463,3.54245716748992,0.9420834223183805,0.6415717363895691,0.40911218182952364,0.5549850481495944,0.46704503657596863,0.33081114060172373,0.7863907465815615,0.23242744406466523
0.8788916786729826,1.1119289739405738,-0.3564189850105439,-1.1741295405009529,-1.1330314617866184,2.0866098033380696,2.488444373685122,0.6385943612422939,0.41358655154107615,0.15280052572691888,0.7040902597844693,-0.40635540325999286,0.5732744397796694,0.10241391025321317
1.379901484059356,0.9456989114161582,-2.253274415175151,-0.4695941074774601,1.382892827763269,3.3515129378880375,0.9303975503743627,0.1861471575490827,0.4839899178346785,0.961724968932711,-0.2495999043103117,-0.09296177692738229,-0.7674654210219427,0.5831421982110357
-0.6851264667179899,0.31106877694800517,0.2344954862189481,-2.249654569971352,-2.5145322298474144,3.452667636708356,0.3735834238152953,0.4082414008117579,-0.11802280674129552,0.22690038777684868,0.6378377765466194,0.7417958215476801,0.16206720795193474,0.12898120037870373
2.200348267429695,-0.7617065380889922,2.1970966302006043,-1.9113331837252714,0.8657051719903013,2.00076153693255,0.9792784010674338,-0.11976293902453412,-0.5827222984347127,0.20930181622859342,0.0833132571238122,0.9887176143945392,0.07770791765398508,0.09725152804596086
1.5095091585607734,-0.5735963393189012,0.5207568381508345,-2.810021974938945,-1.1556174762164708,0.1411126977787353,1.0511050710918384,-0.01614592358537196,0.16807077230208411,0.5060050416693022,0.4149173955530406,-0.11640857634458496,0.5142774764260017,0.7414925997350289
2.657757131853607,-1.6646587877545505,1.19601176365749,-0.80798861826309,-0.7867074929239695,0.8077929314994253,0.9660847627226263,0.37452787416204897,-0.5379890858563998,0.503138338618447,-0.3059016512832364,-0.39556261144890803,-0.17974043916306237,0.8471409414586093
2.208327980783069,1.276260534429364,2.1707503652902784,-2.568374310669373,-1.7062918137285392,1.086565951302182,-2.3113024441843386,-0.3151034061118804,-0.24386278295621577,0.4450239556801986,0.853122228937665,0.3055763232456042,-0.3024146568849182,-0.295551938693194
-0.43631256597721935,0.32631864397376775,1.4221347567910798,-0.24623238866468888,1.1931605397101959,2.156238540764898,-0.5882195718049537,0.2903500353783571,0.026687144359617367,1.1275464097427124,-0.22884928700304674,-0.34170705102253823,-0.5556870222695901,0.722548426336141
-1.5594591244674287,0.8631292174654082,-2.8277138105747754,-2.242238092487352,1.3202768234981686,2.823849606423173,2.0866692304444503,-0.12482043887509774,0.29026202418662395,0.7832998362304141,-0.6121671281356633,0.3481309646963506,0.6176290480477443,0.3501294013038033
-0.08990076676942405,0.8291108741663398,2.753561629113974,-3.0714519616310487,-2.886756462207064,1.637799534718506,2.64918720532665,-0.2750877273177727,0.16077997847776737,0.42698336173212026,-0.2230281788987516,-0.3933953596961381,-0.3564015468720329,0.8176040972095693
2.442259111837577,-0.7417132836755365,2.302935266791144,-0.6882151403020367,1.3855375707990025,3.656735211594496,-0.5044808876097666,0.23544158714629762,-0.577177201724175,0.8020638421340113,0.21135184661277764,-0.41667580178309566,0.7441565751494896,0.47743341399986394
0.2949038430535236,0.323059437133558,-2.542928789605247,-1.0038749179182576,1.5101916947837917,1.0896699015190825,-2.381167942202091,0.05523225806030587,-0.330089171067728,0.9803597634370396,0.7380482427212316,0.47027328367222765,0.2836684945162561,0.3919949174404221
0.5229944895605558,0.42786329115908606,-1.065472599101439,-0.1763071949938544,-1.244352867872687,1.4619769438030197,2.553255072091287,0.32703970321737236,0.007474319397480375,1.0557225081662633,-0.2406682249002218,-0.6122351351026328,0.7467067567282224,-0.09836647968518726
-0.8476563962885644,-0.193798852273263,-1.5328969291257672,-0.9184265654929913,1.253547570365574,3.4913222878891976,-2.6649733499129766,-0.4330792168628804,-0.07588697769239211,0.9880019384824246,0.2352432889588567,-0.3898738381910398,-0.31728447073697197,0.8318590925891033
0.8190654144152534,-0.46728826243970545,1.3220242250793617,-1.7890233387836953,-1.2591086410860066,1.3976197975780815,1.3285564619648738,-0.29016504600625426,0.40594261486889793,0.6767055738723267,0.6175291214098461,0.20478187666193848,0.7593025303347471,-0.013484607107688564
-1.5796768105049153,-0.20612448641080405,1.2578859995084346,-1.221137123839045,-0.5659058759673496,3.5520467784069476,-1.7458971040447708,0.4381076762171185,0.057502350133205704,0.9785896838058171,0.06516874302820733,0.42950625127386144,0.24402501206637756,0.867023188002952
-1.2681997253581883,0.821846626644954,0.09692105165361431,-1.6752919166127918,2.5961015787213113,0.5709768016822636,-0.20712702045128673,0.2974788482107655,-0.5806770666147538,0.33835853862437887,-0.1264702444816162,0.018252263817500287,-0.45924034410908016,0.8790736251696273
-0.05709863689905026,0.00750716115888217,-1.2305301038686651,-2.7401537586077116,-2.397047436548956,0.12871153638465332,-1.5819433744230307,0.030053959089965863,-0.3454490827734095,0.443699907786803,-0.10917566189307047,0.11191653053367528,0.9623695419092907,0.22226162477768602
1.2456700194887813,-0.007925306248851127,1.248726143131591,-2.3667024899161655,-1.368683854438644,0.3612118953373283,1.961000661925739,-0.2042915894361432,0.3006746142117924,0.4665225316333586,0.4357267673861368,-0.018889010265473818,0.8892753827941104,0.13774862260947096
0.6607355279020966,0.8447613944118841,2.054820849077776,-2.0448176297354514,-1.6629323846286628,1.6209914862643926,2.3651920543887184,-0.3077707963018574,0.4364757994763411,0.5760177491824469,0.8575743149051215,0.24310485605049365,0.1993614551432869,-0.4070888521967058
-2.350006342866365,-1.1970995659109205,-0.3601294973419513,-0.44785963468726253,-0.7118792228779292,1.1728473136899993,2.2798464553405995,0.2630686818936313,0.5233373271521993,0.8023304415805707,0.7175325722061764,0.04353003641283449,-0.6928104621918678,-0.05714724167075808
-0.5597307146317325,0.21486271848175664,-0.5643825496991166,-0.8149792970550944,1.4165611658616926,2.171796804075129,1.2919653053708378,0.33395236321599386,-0.4277633581996458,0.9651661952658103,-0.25452434723855716,0.6181925297971941,-0.36434894060234774,0.6483094957253661
1.4739021632452496,0.002404783692397272,1.2284150843978394,-2.504059691755404,1.0406433018661572,2.3087651069648563,2.810214453482162,-0.4153805230565072,0.17601194467641199,0.27304008876690955,0.8419720069183655,-0.4147911052483253,-0.046547165843728804,0.34185499839061745
-0.3265043269812131,-0.6311304527884349,-2.255201589687681,-1.4331615942741511,1.591455530321784,1.670185133756604,-0.5104069574994035,-0.6237877106348454,-0.3026970876470363,0.5491810150711727,0.13105791545697454,-0.5094162109930622,0.8471343985448861,-0.07538075069630475
2.719555973920412,-0.18838539467230442,1.0972215405973138,-2.1217234645941527,0.24909376788572413,0.30682315706508234,2.086002897638408,-0.21539670209262604,-0.23919361758126212,0.4829052460358552,0.4355939963437681,0.484857228431415,0.7302669512179217,0.20464974553112306
1.216633419363713,-0.912457887981087,0.8812934891801794,-1.7178828016423155,0.3015804724867923,1.8385286653577348,1.9252512694707602,-0.4250552770131983,0.17368648463401,0.7604655565435127,0.9128546267400022,0.11282570957304781,0.030877529071153067,-0.3911692317874318
1.6541014306332449,-0.5180564164347947,-2.0704255774553397,-2.588677930362453,1.4336295323001225,1.0762668411713092,-1.8722400652540383,0.37635644285248426,-0.012820087912219488,0.30796349316505944,-0.32559357660561755,-0.12158387943328658,-0.4012407910196126,0.8474738997497618
-1.81592347865263,0.41049081946481003,-0.10286710665696308,-1.9417829884662992,-0.23634121191524882,1.1843938249372876,-1.872490450544888,-0.18899260704623264,-0.43303564866843575,0.259874173740937,-0.8265401720935215,0.003806445655856791,-0.046552011125633036,0.56093650723343
-1.385110175657412,1.5183657584136352,-1.5323448297348339,-1.344515907087503,2.0280934045169965,1.062271960049402,0.9226417841637042,-0.3340204814561091,-0.6257355406304165,0.22238018326252187,0.17556421947877895,0.9178524903435501,-0.03676282673936269,0.3540798008628592
-0.17865964730903494,-1.6053699603639542,-0.3928012915672734,-0.16759406908615482,1.5084446925540917,3.2458242269908077,0.8724607421505266,-0.8143951980806085,0.02531358369311115,0.3370885602549783,0.36862315987391625,-0.5721085526700621,-0.40943013222345426,0.6075983350815083
1.216408356465306,-1.654453442617692,-2.4057676474073437,-0.5167405773066216,-0.46001023060209123,0.6215305333328434,1.9524499096670653,-0.06083894215766017,-0.5927970436429301,0.031020029830324383,0.08823636631608717,0.746699556758038,0.6572784732529787,0.051372406941042226
-2.2378882238069084,-1.1112873246302828,0.7367400324537883,-1.3728394106474704,1.579268750181701,1.8082696785079315,-1.157977771707531,0.517156407263977,-0.041576984523475254,0.8682124157720599,0.8193846592829344,0.1821258146847734,0.4506374520789519,0.303915867537362
-2.179824064280931,1.403382075103372,-1.0657237965868787,-0.5617267375017514,-1.0695372404163237,2.525953883617185,2.123551233651163,-0.6700385503028484,-0.5295007603826719,0.3226431006346586,-0.025752487870613523,-0.6287623682956053,-0.009915894459521042,0.7771076943518467
2.863723174105585,-0.22630585907902567,0.013585228117276138,-1.4346761950118934,1.9568901113791388,2.333779124545399,0.7072003317469266,-0.4539837867865996,0.10528848577876401,0.9272657228424224,-0.3666691943935747,-0.3417938495833671,0.8579435199919957,0.1125325853852724
-2.2101666098954156,1.3019516877790913,-0.9031321091968101,-1.6286715294486842,1.0882242674985436,1.87492678363109,-2.034132763409428,-0.5929708912150011,-0.09797971358939153,0.02218107301543991,0.7106414966572118,-0.6763825850430855,0.14246304395535184,-0.13114702812571363
-2.6191134151716717,1.353915928125009,2.1970923290770963,-1.307153018442262,0.6094141781768294,0.13577452936209738,-1.1419977703039534,-0.1526374939746802,-0.38754904120621003,0.6706821148672334,0.4852500460765802,0.7339540572565258,0.3314640242946028,-0.3405516630671303
-0.04897072636545641,0.6010695570811628,0.004832661693030982,-2.2667060749751746,0.9767801647138783,3.5110460467007942,-2.7847132986288052,0.5084422839540572,-0.1225189793542773,0.152101729715948,0.626829936680586,0.7273627862112602,0.02223535803283177,0.2784478345564157
-2.431240227042418,1.1733263272974641,2.2198330287997607,-2.6573573052313413,0.006116901889163806,2.485611511277966,0.5364753641646822,0.35467212486014305,-0.11811979104688475,0.5164070444718667,0.8116542287583104,-0.2795735416065056,0.18589959215061505,-0.47801400545442474
0.14498992497199215,1.201921111397445,-0.5106071931472513,-0.6526781324889046,-0.547919075299939,0.5667128447932192,0.9668526751679369,0.6412468640730419,-0.12160584128778329,0.31434826428355667,0.5010649596654978,-0.5439382166018372,-0.2783102182448133,0.6128691093014482
-1.7098108019411098,1.4352542860234156,1.802629474912956,-2.3507457922577624,-0.1793721362431535,3.696118717729114,0.6876137613803146,0.4913908448090417,-0.21389108883018054,0.49988018544906876,-0.38070953054607587,0.46368303763506213,-0.4123682277986148,0.6855732919704047
-2.0392881051559,1.1420826720267532,-1.1902440285396763,-1.1954599765277234,0.8182454473123886,3.255560851471964,1.9921941796993372,-0.6969032804179194,-0.34231003943110483,0.49700066909294766,0.5508815148310794,0.47124007151594427,-0.5492066948442358,-0.4157335179575172
-2.378240454262169,-0.7928696063132956,-8.692236016516475e-05,-0.6309579943037127,1.4233231539781674,3.39827116439119,0.09650600133012066,0.1687903469502687,0.3152553398206024,1.056644896209221,-0.080748777594228,0.13856471474182627,0.9017252431257146,0.40146113218520324
-0.6724625087649563,1.5090170248579233,-2.1625465590848587,-1.6227682616077364,-0.2913805753040126,3.114397131605074,-0.7190885723614597,0.029566448678649965,-0.6602447481231944,0.665774136795428,0.47046372286736204,0.01773534893756654,-0.6604855060366709,0.5849001959132236
2.3957137617648576,-0.09970964255109438,-0.9679741364577319,-1.095765724040824,0.7019769774731248,2.3161723593017087,0.6894758604878093,0.1073640288350537,0.4688356894470992,0.9749097152867661,-0.710809076800813,-0.21200450319087352,0.052168821374097965,0.668642625803055
-2.750471181480214,-0.12365575508493931,2.030234778488008,-1.5857990024099593,1.0976847114264965,0.5066461913683452,-2.015500575651927,0.4244634854710583,-0.17322529568969314,0.6297916216943926,-0.4577427087371467,-0.627324398386555,-0.31362347191875717,0.5464211101783598
-1.868495725422725,1.4692939800918103,2.244864233292686,-1.4131943116426702,2.5734267085843716,3.191682028407231,1.4810997790803664,0.34359804133380106,-0.4846772404307254,0.6833226287597983,0.43713527532550317,0.07246012552774801,0.7735939621519161,0.45300625050511073
2.145987862290442,1.570016668626666,-0.014931837302586182,-0.5497562533265676,1.4229700031360148,1.6120669145556166,-2.711479425925063,-0.4943611243667102,0.5822905674295297,0.058091608014648924,0.43297934266256094,-0.6272421866769777,0.00852157693715831,0.6473202536663627
1.6397542088375423,-1.3373319121861829,2.8177662752029025,-2.5307603179240132,-1.2351157882501371,2.3656787866330706,-2.0829367389401887,-0.15025115855719218,-0.042695650903415275,-0.09039866616390262,-0.4496670646655903,-0.6164618866340152,-0.0560753874014044,0.6439175601041214
0.3707689955208915,-0.43470669704005127,1.4210112137467132,-2.889769657288003,-2.0028502671551425,2.693583434980828,2.7836294748680204,-0.024857652721056604,0.2903107397634212,0.18465872694712973,0.7659711406651135,0.44063661935180776,0.4513554260191985,-0.12412034787826992
0.18424860652508235,1.6981044920923187,1.152031575042335,-2.899870522427396,-0.6637237941710277,1.3710328976879826,2.8391252349513585,-0.16169866805314523,0.10273879643281265,0.20915783488591272,0.7637676898083112,0.17317647930995086,-0.037519121970283384,0.6206940780330229
0.09293308042865256,-0.04530383050516251,-0.9669551331106574,-0.3860531062727097,2.308702303043846,2.823310947881546,-2.3846148758026304,0.08289058604179948,-0.20398669817558293,1.1464859436630754,0.10362722678945228,0.06144623919880417,0.8929308642560921,0.4337743989853703
2.654940353321703,1.087914826248586,1.9827296694017948,-2.3948779886255043,1.6146078926260583,1.8117691701301373,-1.9923215512388852,-0.08945570226242416,-0.41476897009615543,0.5763216262687347,0.3236526604773305,-0.03531489106366886,0.9451553875474619,0.026136320037726445
-1.5891732297962067,-0.19205729604084043,2.1554646755821074,-2.5854130239317428,2.628489626965392,1.5295018393127247,0.5641585890647955,0.37689146767139914,0.30078088409051723,0.28678130170693444,-0.2803196856497287,0.5054524387150672,0.5203106980710964,0.6286616605989245
-2.1419289022902026,-1.1168730158748104,0.7262913460369687,-1.5654830275806366,-0.6589288037360181,1.427624507183209,-2.300444089245051,0.2976238834844248,-0.09790865363173862,0.8727801561491204,0.7174700745197791,0.1505530718732196,-0.6645353933475241,0.14478665583047054
1.6418961535034238,0.9215738374069331,-0.05313727246727806,-2.5438680471833566,0.23043442827421234,0.5443069716938772,-1.9570055347537623,-0.0280666973281846,0.15075432249538304,0.1511055536452131,-0.04404883189539027,-0.1238770880033082,0.953618116165629,0.2707889510249433
-2.0937679541679097,-0.8989641254262998,0.79536295352499,-1.2376603595553433,-0.6107112583329437,2.343405556222424,-1.4796233847074676,0.43050355023830433,-0.031170833583671384,0.9847208346570877,0.47432990867991665,0.16879402754749526,-0.4046975422463227,0.7633738358732131
0.6330545709406956,1.231168752114661,2.56311012386363,-0.26658019107878195,-1.793394668625761,0.7592918220418505,-0.7193557169233915,0.44663532906849446,0.5146853839079147,0.5524824363454582,0.5264247097231463,0.7994485756531603,-0.12994803637633265,-0.2585971920206592
-0.5044072517816907,1.6552467078370974,-0.006699469370488043,-0.264428671810939,0.813672950974293,0.53417526839301,0.2833146060757339,0.589628426492701,-0.2187485172914943,0.10188921539400313,0.7042069325790447,-0.15008851300489404,-0.5426702650013648,-0.4325216963979275
2.0924572393963117,-0.8227993979539722,-2.2711187283093577,-0.68477306566278,0.13814139091111732,0.6021834245277569,1.6796751257963947,0.5064339454942941,-0.33666538857427303,0.558757873765028,-0.5749393966746909,0.6818184560741013,0.44658303968662577,0.07163708377875964
1.6873771508989388,1.3479245435329155,1.0755522955324501,-2.0609368675296427,2.6766570834376853,3.5507833351381124,-1.8752269122061784,-0.3954636999706047,0.09316474691136462,0.08843104818972684,0.6568682202243888,0.6133937096906141,-0.4212629818334409,0.1216955147408012
0.556660524642095,-0.32894529261365535,0.23892893808130156,-0.47446375024514253,-0.36992463559713196,0.34625177100067955,-1.6851560280538629,0.03532890275068931,0.04267234879638545,0.9654641522970757,0.4870012046548748,0.8635710498030199,0.05473378324355029,0.11865530573328371
-1.3579127348647453,-0.03897447004783894,2.594353080272674,-2.5842578219298273,-1.185378070915956,1.1993168722046539,-0.37030944179086944,0.22591653092559977,0.2765116244567258,0.29524464614262624,0.3039936872311862,0.573892702050727,-0.2679494553377711,0.7116446402810149
1.5445107761392838,0.07352393610253927,1.8534592229509257,-0.9746606354329037,2.763573141674278,2.1595780365820976,0.900448097497085,-0.4231491131224491,-0.07443743087463106,1.0463771530445845,-0.028523637148612245,-0.11700496511748208,0.8846950651160236,-0.45034529199384987
-0.6901927733190356,1.5835187375418842,-1.5435561655220575,-1.8391232508125714,2.6331817074889314,1.8299701384198852,0.8857846770147328,-0.1268701112708843,-0.6740121382325368,0.2730348669545554,0.186919555481728,0.8434337703505181,-0.4308311393628036,0.26089285955382335
1.1180330973823556,0.8920830310458316,-2.5231769012123344,-0.05280822591143641,0.11461177636245257,3.3548346719983964,-0.4593012130578047,0.23507947397497847,0.6162030149107893,0.7853652910405573,-0.24368198235327568,0.41896794561094974,0.5788285782565807,0.6557762034569289
1.092446845582919,-0.9945186505140736,-1.2245659242438618,-1.1272351501206168,-2.049780001134379,1.1369914563326164,0.781905732401833,0.13319664655622238,-0.6460268555510249,0.6938211405651015,-0.5241079503109494,0.7540990331926394,-0.051338595032208695,-0.39244089136951693
1.0338298972450195,-0.3469015038633718,1.3564701612459493,-1.0290508834471925,-0.7324497521489857,1.9655192998051643,0.549187882449711,-0.44482616310106793,0.1873924725086996,0.9537900526463288,0.4254988068190685,0.6123711967423642,0.5342037150278802,-0.39821937879300284
-2.427301233040029,-0.23257944403756414,-1.1749174444291741,-1.2271588742501336,2.127621536043286,0.2817439166712575,1.2679825105261053,-0.2309720016947876,0.1436499072057048,0.9208940799001115,-0.15810416292028104,0.7631810746519754,-0.511378241175151,0.36200830848606513
-2.845409836135013,-1.3697874103635548,-0.7212575285686644,-1.8781410623769044,1.2857327359090092,2.3391357735637577,1.6103658367122988,0.016599437578312004,0.4096904027767398,0.8331882593203506,-0.29318656820195227,-0.09914580604684908,0.9359576628522163,-0.16791366447522865
-2.21747571360413,1.0262921652249992,0.9372364015107042,-2.076767898412235,-0.4781351380787324,1.8472828747797756,-0.9882310884608887,0.16982102641222768,-0.4402804190121591,0.08693860099050318,0.9127204187566808,0.05408471128060569,0.05253119316737514,-0.4015678708944913
-2.1639486295578534,-1.6129542280901223,0.6073541073127182,-0.9094576802810188,1.1897780325685159,3.315112498786766,2.265104239840619,0.5157532834315173,0.5184097834063381,0.6724573340614236,-0.3980670074621226,0.08350524642957723,-0.6467118538359411,0.6452389553467509
-0.21955883781020535,-0.4743364616822452,2.5741378861345354,-1.7217789586475118,-2.4984032838287296,0.753832445666194,-1.709057081314549,-0.43878280421386695,0.42987266500664295,0.5722123936102603,0.06985183300944454,0.1793828756007295,0.1561259483299093,0.9687967762252929
-1.0846292851254344,-1.1505534777084365,-0.2631482421016784,-1.9535343838591828,1.6432332524567372,3.4431877770763823,-2.770985643690545,-0.21983275084735793,-0.12164391348383179,0.8657813884429282,0.39822226114084963,-0.25791012240247474,0.3407474205827793,0.8116603937980416
-1.4746356437667738,0.9281489927474409,-1.9949076732531656,-0.13890076379009964,-1.0875968620189,3.5604087494779377,0.7099105198576581,0.015392096311944143,-0.6822923907742668,0.7204737662679948,0.5621904289011244,0.21526296543038237,-0.2860134623781465,0.7455200042282919
1.8252342561646366,-0.18116404159348454,-2.1568147507606072,-1.704358874689904,-0.34951179889752515,2.489040514335502,-0.40238980185240525,0.5928274316094001,-0.2502895770513095,0.5996340279955803,0.9334566820275152,0.09917245371163713,0.28610440022333455,0.1922699128200812
-1.2259880162579007,-0.32915037902500477,1.6900065512820617,-0.8935943406128559,0.892307367240917,0.5705373401008547,-1.233315438867174,0.2106783834955073,0.40180959233386054,0.7879847901901496,0.39405414825470403,0.882151215945264,-0.14237998346854538,-0.21507789462668764
0.9782042629295029,1.5396964558823032,-1.1750977421839255,-2.08928899930045,2.5105275789518378,2.1731690295692534,-1.3015346913066226,0.5353716970485947,-0.16052180441333633,0.09058520866085926,0.9320523571535165,-0.09570688756940766,0.3493736037880683,-0.007528623545396528
1.6479514405841011,0.029582365125417676,1.0564325184908232,-0.39154230046537686,-2.66452939112857,3.3436793615762146,1.3282625028390433,-0.27128513588128106,0.09339134906611023,1.076432876458071,0.15499871433875376,-0.24526941375490477,-0.7334161667570754,0.6147512013563019
-1.8032716199704912,1.323539986671321,-2.8300474129263775,-2.6283146596628244,-2.8566380769026467,3.735617548120208,1.4421033338434994,-0.07994804241821393,0.15085967579417495,0.53544506417325,-0.02597017279378574,0.8194338351428349,0.5681818670742759,0.07087387301506835
-2.542594860251993,0.6215290815962478,2.2299046612987756,-2.5270564053138718,1.091788258307008,2.374872033672873,0.8586110893787815,0.41640247504348965,-0.1363149900666584,0.4432021520894158,-0.45196965487312124,0.663850238740309,0.15968103571200754,0.5740455194775471
1.511705236940458,-0.8878730738729238,-1.176413651223248,-0.6698153049015674,-0.39968553790519934,3.721899335316848,-1.1933505392777268,0.12085208496032976,-0.535043705299858,0.9152359862845934,0.17249711218762612,-0.2639538336590636,0.7913227765709657,0.5238142640895057
-1.419911113714287,1.3905331419004128,1.4046790409914682,-1.568719179925858,2.00794451486906,2.143132184748538,-2.8946079149241557,0.6529249414117477,-0.3272450802112493,0.34770480815594285,0.3478737779952918,-0.14664651691758585,0.9055254533739081,-0.19365507210295507
-0.0371353404606225,1.564899603374116,2.387994167894963,-1.566769387370185,-2.7734022558370137,2.057204130666796,0.24342328834794458,0.4632447059019519,0.40340948003683386,0.7554822141477574,0.5791414565385428,0.31904779455340276,0.7493915570879779,-0.03487079400129688
-2.230014949768735,-1.6747248505197465,0.11398984712506666,-0.2636044280670582,1.622575475677848,1.365748740308918,-1.555396031988738,0.5830237283440138,0.5326226903168396,0.35125091185917906,0.37280575657012865,0.6761604798820584,-0.22694775792591465,0.5935634662664463
-1.9379523819533642,-0.7754849348830058,0.024308162425784374,0.009733882302232377,-1.987342095492501,0.5179900084924884,-1.638034903522674,0.06496931867818583,0.5023468462836614,0.7597265348579553,-0.3139008576263402,0.880703124486493,-0.035594579904736745,-0.3529324071016747
2.2209840960664207,0.37872378550451247,-1.180120238846913,-1.4400414199382998,-0.8325126504019367,1.827306405545678,2.4881410378941804,0.25593052806974853,0.5732873313221206,0.652542946903631,0.6733523890978032,-0.48215332517607123,0.5203808873402422,-0.2081549019574615
-2.4866808698739855,-1.1636950051048771,-2.4265629211749418,-2.8589436556594445,2.832836052018823,2.355238593162503,-0.7415806339560542,-0.1700776343767186,0.13758834463049174,0.05104301467472963,0.7520948001854072,-0.5093949252020685,-0.4180931348324791,0.008267546093118798
1.2636912655715826,1.3708322173610328,-0.7445584010583812,-0.6492602092386921,0.5945521059609948,2.8399947030097246,-1.040337578061223,0.4579254537612701,0.7180608585408739,0.30087228840709945,0.47593667402075884,0.7393581146119564,0.4631439139501426,0.11104762784703624
0.6875681867403909,1.5491182359935713,2.2753963885673323,-2.0273045805165077,-0.9661652617298997,1.6425317871058358,-1.876153951380495,-0.19350430769518415,0.42697321883644557,0.6121992762025593,0.6857690455349259,-0.6389031203215199,-0.24340895018912206,0.24955100079416975
-1.1437638307741378,1.6254130783868952,-1.3382211620388087,-0.9111174734700938,1.8653463639996946,1.1292777967778964,0.6358451204443352,-0.0008798611925577432,-0.7211287690746,0.0937849531847147,-0.23088571387447504,0.8989711624838281,0.11433739307911592,0.3542168780493393
0.08102313452083632,-1.4158115358732641,-0.9629876259513666,-1.9553234201026615,-2.3975761509418487,2.265306471029762,-2.0866737042604946,-0.12016645447045748,-0.5162009745332977,0.6920357827856586,-0.5383302516489117,-0.4148677494937275,0.5537620666036422,-0.48107469709026734
-2.030357155435579,1.0916725542621686,2.4719717924529223,-1.0909639715851518,0.7695526237142736,0.9550401250529104,-2.7369684410327113,0.06965135469472704,-0.30470059528808313,0.9146202112616936,-0.330913152797158,0.7067441060981748,0.6071839249493507,0.1494554618755627
1.7405572807969993,-0.4408244911562651,-0.323053139477782,-0.5016846767570824,-1.7837921486585402,2.5483215850661507,-2.603968440199876,0.09018831722028109,-0.10293672601521858,1.175710543303639,0.0994789117503066,0.3361334443440826,0.08063106673950042,0.933068531666784
-0.9568522621506359,1.2093343226043505,2.0333677422149576,-0.21120272617603186,-2.5938412168937734,2.9644434024044313,0.9992894011209721,0.524955157295372,-0.5170419957625606,0.7192352156458561,0.47909472263653596,-0.34748883948899956,0.7846998704726924,0.18429830832796262
-2.5664757894354406,-1.3585407042318955,-2.675502489465615,-2.9338914815846833,1.3579543119422621,0.9708487217803486,1.5926953426643737,-0.1447765049882811,0.16564939718814786,0.19048304649482267,-0.27277639967240797,-0.26201811421592947,-0.6340268037723392,0.67449948532428
-0.6403692831093912,0.0335029040420427,-0.8358020303945524,-1.913849152539135,0.7441102666223887,-0.015631226175464693,-1.146402804799797,0.09748016916261569,-0.34611806583354965,0.564760681239795,-0.5511658856759701,-0.10988253215210039,-0.0828508850261666,0.8229688490126749
2.6192772990404163,-0.08778107608314611,-2.3806811840008013,-0.7333833274671573,2.0050014130952767,3.5710435492848047,2.867476484504715,0.42386283568737493,-0.05374644580628113,0.9673661523043651,0.4650241010361466,0.20148342460710708,0.6821571493810232,0.5270850392607176
-1.0395979952869936,-1.6515585450790822,1.1672835505800792,-2.5151955557999433,1.6634808750153982,2.938136409809813,0.9283687314628621,0.34380923235309757,0.1664816066233629,0.5687050763256151,0.4511650834110875,-0.4917169360755376,0.6661700845545713,-0.33298940032936086
2.3051350229822103,1.1266327340913938,1.2890938224302606,-2.954654589060764,0.7323845526211894,2.3417104143835603,0.6656081733141561,-0.08597638700981024,-0.2663329224137086,0.20058261455183962,0.21278016116816734,0.6046494922605402,-0.18671889049434356,0.7444861653885054
-0.05549421799294629,1.1337769280673937,-1.8683339206102305,-1.5048076159530552,0.3306201419518793,2.248130901393015,-2.016671466133045,0.265102673423378,-0.5893743192936738,0.6555317656796966,0.7908377893359496,0.20376119405984613,-0.4892312185832771,0.306120534294999
-0.05652075370280052,-1.7123660877428948,0.9085272682603449,-2.750334261400625,1.3935321721379181,3.467923643782269,1.402896520763822,0.03473343724414205,0.2049562980535062,0.6473522793986759,-0.27635413944427945,0.33814738560709745,-0.4876099541080414,0.7559902564675356
2.0687972743618306,-0.87109980770275,1.020009441654524,-1.5934380982014118,-1.1333103845192585,0.869111949838698,0.5362537308321333,-0.2772230775897787,-0.18230297472858858,0.8142720905593999,0.5388785817006926,0.4628460398607202,0.690426904933448,-0.13672639289295263
-0.4009631793575825,0.193412327007763,2.843590459542256,-1.6926695685859303,-0.4031290001159067,0.4216573203424923,0.2647329443769997,-0.22412521980196995,0.2726860561044788,0.6443277446136222,0.47726727782011774,0.702193856269934,0.029169084438217485,0.527530945302709
-2.2249391059524846,-0.674834059960395,1.0270425503087695,-2.773966634742706,0.30881627091174035,2.5328842084505596,2.2391833800602234,0.0995414018099326,-0.36931089230955777,0.342562915286702,0.29011294566933304,0.9338732615453379,-0.17467249056638062,-0.11491184083928452
-0.5367766775641125,-1.630658183406852,0.9056564504558686,-2.0153529048909897,-1.693747044656938,3.749637645862531,-0.4159732436812482,0.06251348159673172,0.5078860994106056,0.52023045067265,-0.3072823622564073,0.6299265937586388,0.10739968125299754,0.7051491649208098
1.6690065248774366,-0.12107891833987083,-2.009184812909411,-0.7924297384411796,1.7152973396417681,2.8776405629748476,1.036739778641099,0.3607371427448195,-0.2703735911904877,1.0284745439813918,-0.07761607565643239,0.383545082907162,-0.25890018242424934,0.8830852788480418
-0.7391187574765645,-0.946062244706042,1.3200557392739225,-0.9261752218594776,1.5997537885518276,3.110195629915688,-2.8203005503303373,-0.0583655349245122,0.5871666607844056,0.8815535848946898,-0.13412248172196342,0.48800284343572614,0.7376819526280545,0.44686655889901683
0.23602685618177066,1.6042633346395565,-1.6345973344448022,-1.383203104930697,-1.543613574997429,1.3131631720950827,2.6060539602775123,0.5829928334745387,-0.36662590988922855,0.47456491441842474,-0.14652728309321172,0.05528406368740637,0.6597466488121192,0.7349882903779537
0.6973526180582588,-1.3501269078131766,-0.8379008032752666,-1.28854015278616,1.2689930762237407,0.1326300708670169,1.0526882110393605,-0.1598096605936077,-0.3849164117091231,0.7269175446383549,0.8419697759354411,0.29462931443363605,-0.055994278725199124,-0.448492033638986
1.255885719387885,0.8617190964242445,-0.5487541233182887,-1.8099940034856787,0.4480432705229149,0.9563807411165909,-0.3876901456187478,0.3047928703071836,0.3333426671105828,0.13268676987881134,-0.6730348210124752,-0.2602772410197158,0.6863467170916675,-0.09059840754318416
1.7565264511405023,-1.0353219851056115,-0.7482360910144168,-1.5290246396360687,-2.421428294437984,1.2963715283130295,-0.6257131993615532,0.45536965237519283,-0.19634425042566178,0.8695571762716728,0.7589357563008795,0.15179430599965793,0.1611473913317653,0.6123777631013894
0.12328933890992788,-1.056168064437434,-2.6471195697199086,-2.9444572420819894,1.3684752971691547,1.918726244205609,-0.33357718594972985,0.07308173447798222,-0.17089020931095406,0.09074077454101231,0.30497038484724653,0.5126268686098566,-0.1965190369436327,0.7781947224596953
0.4418212744315153,-0.49620099241174764,0.7969129580919163,-0.03283264634239025,-1.5189600801142864,0.5980006123497151,1.8291286347801798,-0.16576854507825028,-0.16663176746180283,0.9676897740878256,-0.3918736220602957,0.7835801842825335,-0.2327429733930963,0.42221779624885036
-0.6578570725003257,0.44745032933224005,-2.0676494261919984,-2.3946050204585307,-0.13625082856565696,1.6059588211332447,-1.8878769171418621,-0.3636971025979924,-0.1445903417235747,0.3766792770065286,0.8247128619031162,-0.42586119858197824,0.009079660508492763,-0.3720329215525729
2.8175078016951676,1.6532582969812677,-0.44854002060648046,-1.043944792674412,-0.8758024965517222,1.8798906500800512,-0.11716744647626776,-0.44592374438915283,0.4323722472973797,-0.1382338929543071,-0.13041488800207152,0.7518394272592849,0.4010096370257206,0.5068734591772761
0.27302362976945016,0.7703693094324322,-0.09849545039059615,-0.11120027716401948,-0.6261494436465203,0.5000505924178288,0.8235388270609079,0.5474824679366876,0.06107723047136924,0.7025742836509862,0.8082444723816983,-0.5153483097214864,-0.03720356783337576,0.28244094439741674
-0.34664738825601527,0.8956159742854535,1.8918738683787644,-2.539368769350904,-2.6309699019459076,1.2586006719269789,-0.902828811182361,0.15882543222335904,0.4575979842439947,0.4494645889217592,-0.008046313647275214,0.6190721520019956,0.26662285043078665,0.7386455056930017
-1.3004545898795128,1.700711436623521,-0.890482705986686,-2.4685953797887312,0.8904523701140192,3.439165238956921,-0.7986387501702179,-0.41649136651916213,-0.1374458739536764,0.08921987442287259,-0.547206979617513,0.5500688305171388,0.6003994177500984,-0.19367328756627405
-1.9355462365936487,-1.52528757850416,-2.50893740178342,-2.8912847507350845,0.42012865111441355,3.72294804494828,-2.0306819887490946,-0.18253780238535156,0.03771915768660164,-0.010916343585694321,-0.04167294952190039,0.9268605357633338,-0.27379241665260656,-0.2534376158074731
-2.5126691984700504,0.565379563465342,-1.008824108236609,-2.635684262146894,-1.968279209848633,3.3949323418247515,-1.3509114744920283,-0.2909728353550446,0.07850218694417338,0.12745036911676522,0.9913951237714569,-0.04166718896804406,-0.007705432949047387,-0.12385548122205507
0.6292482034577986,-0.31673579319901757,-0.03788270654147485,-1.9377187255079857,-2.3660913467292675,2.905142899567727,-0.1689687721732538,0.3848525725380004,0.30573090042129375,0.6730919730175287,0.06568887453008214,0.6615240666877401,0.3743890013289165,0.6464547599328372
-2.015560416314425,1.4088618891879916,-0.18913689950001444,-2.915446153647569,0.5822312880795915,2.9546454006270504,0.8368457894866821,-0.048730606399096224,0.12572974449123334,-0.003987768864638645,0.21145066666682702,0.7604117096214612,0.5928062827201903,0.1601354383145426
-0.23631251122504482,1.1674583412867037,-2.51665002184296,-0.7868845465733205,2.538514676608751,0.04598918379517272,0.7363142144807613,0.48686923979246227,-0.26308930640632594,0.6771318020658467,0.7837721408319754,-0.5474243789398726,-0.26508353762335246,-0.12553285896149136
2.1567043853885024,-0.8811472392333671,1.802574800185813,-2.8906938570115717,-2.179749945453415,0.18573255171068015,-1.4336692974551581,-0.23354095013562556,-0.2027370419060662,0.38805088465110676,0.3446600855467616,-0.023967940576984172,0.682919580077331,0.6436270740128939
2.8508048913131936,-1.423347722093761,-1.0932650304448326,-1.7616204888786189,0.9570786836536134,0.11899210744770243,1.0124557621398473,0.3200904133817258,0.20813945755776686,0.6151438591206095,0.15459675720963464,0.8056752082053551,-0.5697515459120533,0.048687549479803076
2.854234438283043,1.4977726959591733,2.6446115249698985,-0.5354516683458117,1.9173014777977948,1.1877845773450098,-2.7794650442497804,-0.6934016618166068,0.22432100428862384,0.6132796929811869,-0.5429115452461278,0.4539030592969337,0.1729412461023519,0.6850623272344727
0.8905026991953608,1.3772688898550345,2.8702411166361537,-0.2500365945985772,-1.546089606868336,1.4432174038467929,0.1358188638176303,0.3583613330501302,0.6730761523200893,0.5641394311099055,-0.6524613348853979,-0.46989072477422605,0.2006457680568133,0.5596768612437081
0.07406502974336027,-0.36152588364332905,-2.699426837330591,-1.575698348739976,1.6739852952503136,1.0367373080877587,-1.0430358854650519,-0.4775547130303485,-0.36833906372393377,0.5815931847250991,0.4500751385619251,-0.32972118567562253,0.8282925199393827,-0.05145688270380186
2.115213272327464,1.6041754714217036,-0.3604019198195543,-0.984243104892224,-2.0389122452450916,0.13347236989066003,2.3179156954564157,-0.14960580839463805,0.5827796906278261,0.10907387692747635,-0.0013266092408327221,-0.2630909057091877,0.952096373807249,-0.15586503913363153
-1.9509077990379184,0.2970322303907946,-0.8334898419175762,-2.468834148173267,0.35941720808357935,1.4334723720699547,-0.3873315698024351,-0.29816569853511665,-0.13297235176567906,0.20016750830309452,-0.1703528240160523,0.8087387700471119,-0.07230649938710466,0.5582949823514654
2.291411312989099,1.7251490839255972,-1.186777981383074,-0.2539419311024482,-1.634859238867555,2.540726645865943,2.3313611572971102,-0.45227753027159984,0.6972170910333564,0.14272040626795016,-0.20488277386026826,-0.5417776599366055,-0.6346806397145619,0.5115471647272148
0.6316051341427023,0.5585625714657829,-0.2940447718842423,-2.0015072962825187,-2.8508921239802616,2.0700789068546146,-2.025586000618199,0.5989074524668815,0.20387345574316967,0.21758551937597922,0.5843621284405277,-0.31511332102893813,0.6022375385884198,-0.4433220554738183
0.6698173893134576,0.5448228301534428,-2.676834442720981,-1.7600029579230585,-2.340721084724227,0.3253202819568105,2.804907165238587,-0.036393083000956915,-0.17188850822600965,0.9048579741523238,-0.6333812510399286,0.32927438351526417,0.1572295784789516,0.682411482056881
-0.9753007158417255,-1.2448239317391068,2.3635219691453035,-2.5457050128966805,2.7451631161202212,3.3588405403587966,2.1037577384992034,0.22410829922655684,0.13697500499131768,0.11109393099165596,0.05097624025302111,0.8639358617603455,-0.2523769312125544,0.43280727152603254
1.1270692910617215,0.3025921028830112,1.4663820616357959,-2.9982962526414076,0.6930794140772427,1.1756633759126998,1.151720010721823,-0.1619852981520734,-0.03357705055698882,0.25263427506356834,0.4248433363038688,0.2948128765029654,-0.13021134453221678,0.8459542027801252
-2.5645007575035095,-0.021862330804020225,1.9699013971978334,-2.6965621557345383,0.1609767153509427,2.4977612385293466,2.1938158686449287,0.3181237086160472,-0.2192121577399694,0.21236889170358186,-0.10537026293527704,0.9886464845598537,0.09387881762535501,-0.05159461074239119
2.4082334485945753,-1.1875950291998683,-2.555884990552021,-1.1006875407715095,-1.3241046183472964,2.179923025025055,-1.7248580666658002,0.7167190726791356,-0.30657070335309006,0.15005462081523652,0.5231440839505003,0.8045514218353992,-0.20484266634243212,0.1925013223226076
-2.2704456955725325,0.05813767780121415,0.9052714648237918,-2.6045487505811735,-0.30439197310302424,1.4470154992979951,-0.8474982611924875,0.028928469602434302,-0.2884442457728523,0.22853772465198322,0.8140238648528013,-0.13132895234724296,-0.35177925137035787,-0.4431356587217897
2.8635013060191183,1.6413480621311813,1.7396892093783713,-0.03207773795148805,-1.4635244723495096,1.439201865955256,1.8308696386425294,-0.7488478747691534,0.1653656148117294,0.16793454615947545,0.8469198370483889,0.5040339355505388,-0.028118704083181893,0.16699077791317735
2.6330246018022767,-0.7084266438005491,1.6160651370155628,-1.1326968331500422,2.6189810085653327,1.6165515309176408,-0.25390645256000566,0.21651944844644133,-0.6229557946674816,0.7982225562858787,0.4976400941129801,-0.3234330596181162,0.7279526101134368,-0.34326431522417683
-1.559316369800456,0.3689142980782316,-2.274016333694523,-1.6469760424951092,0.6923644278471359,1.2038963256357238,2.6096351758174134,-0.4431435909806476,0.14589710590149182,0.675291339644207,0.9752230645660207,-0.018670128464538638,-0.029618286006248693,0.21843570627447503
1.5523346911424771,-0.8000150652464478,1.913634814530099,-0.05684547688940089,-1.3652412084700074,-0.0037476287176832577,-2.006727136366395,-0.06755718937108358,-0.3779183566993223,0.7979675553621396,-0.4164914761507162,0.8176792481457633,0.33550379021780075,0.21300869511610687
2.312427947558835,1.2850603734433652,0.5673998876773751,-1.7084554953450803,2.158390421755891,0.15081639353884385,-1.9462640306008514,-0.530457895409522,0.16137999799999123,0.17819237599289964,0.020362821712989303,0.21223473871116721,0.6601547638280859,0.7202343083824677
2.5326871386049317,-1.5955230175646022,0.6271086710907983,-2.67517244785314,1.4923375665073286,2.516356292879209,0.03636027476661852,-0.21360961647585094,-0.12264609942177447,0.657937030385171,-0.2316538061282522,-0.6908549525601945,0.2919168680695374,0.6195486185650144
-1.5459683240898885,-1.4552096697047352,-2.1152071876138447,-0.6174454521738224,-0.569444332565181,1.9956261899159289,-0.6039586225966924,-0.3025941845903865,0.760327696730051,0.2104062448682987,0.26960085623150964,0.9298281732556893,-0.07932480053624842,-0.23757635100975238
2.019020852312725,0.8837807503273711,1.7465571551597674,-0.7031668144845171,-0.2608281151646281,2.2791807990102098,-1.1772515810483135,-0.5681096212617669,0.32967351727144895,0.8553483909533715,0.30130213606481154,-0.6407533976249906,-0.015374159315219618,0.7059856524463953
2.6355242723133885,-0.2597072275305168,1.4831296719235838,-2.8900026361579774,2.7014181050593495,1.6644934253022075,-2.663265368101746,-0.19589263108542335,-0.3152356693628935,0.2263973179225652,0.4227266488807847,-0.5485700891741191,0.5094892186822728,0.5106797172749746
2.7021000651908573,-1.652459391579777,0.046424884885503115,-2.1503023383259077,-1.763575732181035,2.0214374671853146,-1.6918024727204348,0.1584965784120886,-0.040429134397318184,0.8841143135480388,-0.07539037207662487,0.4915439267541735,0.7485388673546192,0.43862332807170623
-0.5083290035135577,-0.4384381457945332,1.6758834587657359,-2.606651275839284,-2.1519721322634724,0.29749189186375585,-1.364594948473107,0.18049458320050799,0.32630592653736595,0.4714549881596652,0.1641941146133663,-0.06369878929199697,-0.4920118475135442,0.8525884698231471
1.5985472073802263,-1.3021840844593942,-0.0112042189658621,-2.7772741112603576,-1.5651376234149095,2.0184142649266867,1.297081095129624,0.05615343702257423,0.21814707560944013,0.6262500064454792,0.6610043284210203,0.22317138626399463,0.7088777071492617,-0.10373141505102677
-0.1797340606756972,1.2186731326902285,1.1926300012523776,-2.085073592537409,1.9046323593060488,2.4737683720653876,1.962616349019902,0.2890325579961989,0.49200836065158426,0.1753433015101013,0.14249719485996978,0.6295965242412908,0.7211573095488086,-0.251465506590167
-2.061691978877829,0.46658473940435785,-2.561405134490272,-1.0717462753644211,0.24486614259211326,3.385783850599546,-2.016663121575676,-0.1763605550505555,0.08852195944743038,1.1215024929750055,-0.1184466109480983,0.20060997173234377,0.9656376378210504,0.11519545138520018
-2.072140833939705,-0.25984476309567683,-2.530439152626181,-1.1974332731171045,-2.5346041134644763,2.293990346030332,-1.8250561750805006,0.021209264069669408,0.6509907511869996,0.7989282686584743,-0.3100482880640052,0.287919927649268,0.07477371941770201,0.9029845321019971
-0.7554851867647376,-0.3526351630808786,0.712586118192831,-2.0527567157441986,2.8237333717125934,0.8021660605166108,-1.137093966031354,0.4136437870508155,0.11505257390966081,0.7690818124800187,-0.07991866996573474,-0.35070670057212167,-0.4416107362341877,0.8219475494260099
-0.16856448005517022,-1.461894114552252,-0.5104016188715117,-1.9999181065435987,1.1840662471344694,1.3304876126605085,2.3956530940670056,-0.13142477278458553,-0.12353584669401547,0.8414661936494825,-0.3919226160984532,0.5483228161401248,0.3751032884693815,0.6364246029736462
2.664426067024842,0.0740599758557976,-0.6644044510135427,-0.39283558120275863,-0.6695819716086144,0.9155315987975337,2.4249431434263014,-0.07146477309930357,0.2903446525849452,0.9852186377392305,0.8412322082423639,-0.43635830054682284,0.0492193850083789,-0.3154318587254015
1.8718431611385662,-0.1768998915547504,1.1103228005771055,-0.25996815330034595,0.3871590121811721,0.4010044342256151,-1.1635951159102376,-0.16734414469832487,-0.11921530134594038,0.9483719487590297,-0.636146231685531,0.7656271939869601,0.07476245236303215,-0.05952770327013983
-1.0849135114077944,-1.0144871647953986,2.746681157726981,-1.1516178428235464,0.877387414692715,1.9380094205215572,2.7698197302623186,-0.2092769528685055,0.7271095617582516,0.1963779049337395,0.7603533287082672,-0.6067073375844968,-0.131275011228387,0.19114364616794333
-0.8047317827127407,0.9394154949249698,-0.9641690129007678,-0.06764964181368693,1.3325905002733225,2.0543844599253496,2.4359266397429162,0.48722647665553503,-0.519661305230231,0.7671139414111547,0.05886938343814971,0.8392037883881828,-0.21363620773870515,0.4966195404850267
-1.4711970790084916,-1.1414067925326525,0.06755495551652269,-1.2444876588074723,2.804437127182726,2.5589893495826983,1.6736703728694473,0.005810526229058562,0.2699313743748809,1.0647794847429897,-0.2394803927146174,0.08287479611215295,-0.03979576683665694,0.966538776571589
-0.7406637161834166,1.4224623949181288,2.8811128768336496,-2.0788439993447856,-2.7356127196177376,0.8817405629018322,-2.066629379943898,0.3008909567438915,-0.022028045338125232,0.862151009201313,0.38755909051849396,0.6485246383465979,0.02829057933425142,0.6545329540480179
-0.30766503365086395,0.13072546844948074,2.7471015116001944,-1.3898404046722221,0.7880007765425834,0.4982363045052625,-2.529206204811949,-0.32321504477700197,0.18008441050690266,0.7516476702562203,0.8258086045374118,-0.3172002737162904,0.3268106436065952,0.3325942546883907
0.7920740821658634,-0.5811194441914558,1.5769706550347622,-1.2806432844153373,-2.5161167459385934,1.8961273614363745,1.7134806222442536,-0.5784266647469712,0.15810258695851281,0.8524915687153757,0.006213412094640915,-0.04479963940416714,-0.8492273024708801,0.5260868507741199
2.3399806425347927,1.74705539271757,1.6080081990673203,-0.2475566640563076,2.4041942227642052,0.26312923096120355,1.4998772525298407,-0.4500712641668651,0.4747859331521022,0.29331879819093876,0.5320784900417888,-0.24632706621875294,0.805935457743297,-0.08175264420808906
-1.3546143114496487,-0.31095235081706196,-2.448644632921042,-2.8658492395924404,2.4467260512114035,1.9790115268179216,0.473637874974683,-0.2870422534684326,0.12905044357327214,0.12944511023833924,0.7603656173283926,-0.2177978134385694,-0.5791604897302367,0.19743699648653215
0.6654242827451324,0.14930874547362327,1.7787077794974206,-0.030138869876763508,1.5895909109825737,1.751583896416705,0.02408088285676202,0.02786967694985734,0.014725842239991932,1.1455457435848235,0.24687010372876642,-0.527770626146759,0.3591842833692695,0.7290404437629715
1.0628917334162629,0.03133638212978829,-0.9549035766239278,-1.9325669602495852,0.20594450155626998,0.9354932319372893,0.6366053939431904,0.4261066436320158,0.07783354767146336,0.4524340269482765,0.8421218707839861,-0.22065141021441315,-0.483523438467218,0.09137173726327244
-2.4624023309641516,1.555307362693548,1.3858056611224074,-2.85112054983282,2.25527595810988,1.8052082808990961,1.3872996566425075,0.31848376195707345,-0.20517284190400067,0.32976662938922274,0.4293895050812392,-0.07731445247636577,0.720617461687395,0.5388484037979365
-0.7985121921744196,0.8507985514087602,1.915319967197394,-0.35126802541951196,0.3504021341618615,0.7852003432298079,-1.202732420243649,0.4396991992051588,-0.13149331914705178,0.8581303999324374,0.264423093020536,0.7682569642764164,0.4026566699378958,-0.4215794953182168
-2.861898798873369,-1.4340322421936318,0.25990490490766227,-1.2067287181672408,1.1802972743317022,1.6705072697624563,-1.5173607529397122,0.5030444724681173,-0.08459117625191262,0.8772093937962586,0.7239690287077396,0.07494957543657359,-0.09753667063146523,0.678776844401736
1.7978021289120893,0.377292262800224,1.088253961170837,-1.7681356190017192,-0.9949979160158895,2.071060347587336,-1.0651149784907232,-0.5827533121325775,0.26743875520179794,0.466920197770414,-0.5328283831361319,0.7936433269794281,0.2728848993288565,0.1084343828489835
1.241755321167735,-0.5363474120160565,2.724844518277887,-1.7023112689007074,-0.5021079693735575,1.4949903741921298,2.4671659898460843,-0.42442168723050977,-0.4122387872861635,0.29698860312861664,0.6044401322654929,0.6394116011496733,0.30423169260877764,-0.36503151649478527
1.4243446006548122,-0.9247518448334187,0.16699013663376672,-0.580353230706975,-1.101186245550355,2.1763110303040594,-2.4357060331214684,-0.0821786395901705,-0.4306530345412127,1.0549584345176473,0.14732640148605747,0.3200119971210045,0.5552611368762371,0.753373959596895
2.2194656928846617,-0.6026755199214444,-1.8434166351780295,-2.428753088555462,0.16244743110751747,0.07609926460543648,-0.9290499927292577,0.26135746746440053,0.07514889611529033,0.37872763580444935,-0.04401588356161456,-0.3874401917789659,0.8172524474048161,0.42432432996401115
-1.2887454557110556,0.7192592377653346,-0.8544586635902056,-0.4761068992092272,0.2599174197199754,3.07294491460314,-1.0064344590616878,0.03760842244356027,-0.6331615654206427,0.8958433824124061,0.5322593843324275,-0.10309079258080199,0.03855443506088628,0.8393960875607316
-1.0195862653376535,-0.5753451315002516,-1.1419600936492904,-1.8983220441978659,-1.4253705238458234,2.1626446218206548,-1.7012090176885015,-0.4461258106925228,-0.34126096818413026,0.6351311801091335,0.8778103392343037,-0.01740404080053842,-0.4680784041290219,0.10024328049898364
0.5976246556322558,-0.8529944316549226,0.8326850798529573,-2.431723100174661,-1.3738871075709351,1.93997961031273,2.6276860305754,0.0422342665575778,0.3895499720268208,0.591046345464901,0.5503810987549275,-0.21644771944196564,0.7530743517157754,-0.28828814000849123
-2.8895735753307585,1.0844976253570988,-1.5407615658387541,-0.3163373903152764,1.8659827319521924,2.6675013221846893,-1.0446123578616417,-0.7459749764413619,-0.01181631084732292,0.7424029756510674,0.24760742047236292,-0.6530171312431104,-0.17586125897753407,0.6937809519011583
-1.2568246514115482,0.21801126824934025,0.42082299788799116,-2.1731556152045726,-1.5851877396773082,2.741774340858683,-0.9232143786509988,0.4036544910879075,-0.3928279987639411,0.31550326549052815,0.6832175443943888,0.6149505372092611,-0.18167645020991288,0.3493469496887976
-2.7023407459706066,0.9879137017797679,-0.1434457123508679,-2.959979413259891,0.7817734013484792,3.7477521039685233,-2.390303821299458,-0.16665425313978574,0.07695455387750795,0.03235237935957701,0.829102579030734,-0.4654288899334426,-0.09711165453678153,-0.29416693970097585
-2.235564104704093,-1.450201831573248,-1.341208702459419,-2.899238882720424,-0.4198244828914759,1.8332629411807284,1.0512091547728981,-0.2688212339455306,0.0013072295399071676,0.32908463551001005,0.23897976353012812,0.8664343264762734,-0.3479119109474347,0.2667162026341762
-1.218537117135292,-0.561604840206541,0.7047402456033511,-1.0310884696143447,2.108972448702017,3.6670109378919005,-2.094408325079456,0.2097805183515338,0.0192830902844024,1.0192276114195467,0.3536736481467269,-0.16876390583991208,0.8337537113399573,0.38895815137247053
2.3379038893017454,-1.4635100927995517,-0.3117907662999815,-1.0005473072110673,-0.8294681295389776,0.9663631828804501,-2.7035180085365194,0.49453564281498485,-0.18712545812384734,0.7563573276862537,-0.2779412704699719,0.8007421123631526,0.5213406254748848,0.09881635435083566
-2.4831532618753145,1.4169925543762742,1.4181598063135987,-0.81345394374521,-2.497343863682123,2.840373704566155,0.014453621985250908,-0.2882382192420318,-0.7623649885884937,0.4064039873048259,0.6897654808179408,-0.2960993387220319,0.012405315895884984,0.6606019007071458
-1.2001649962440133,1.5567466261804102,-1.068242412008997,-2.0469434849606127,-2.2155255332076456,3.736042833691463,0.926195445799781,-0.281454158336207,-0.24747940392216025,0.020175822959910772,0.8923378357709095,-0.21161749033237925,-0.3392878870194718,-0.20936798790401742
-2.682928914817702,-0.19600961238853642,-2.46732731570662,-0.15409737277633972,1.0375918975865934,2.6914306327234954,-2.5475781044409143,0.19886416243139093,0.11836027100334032,1.14735709686086,-0.06255543413736087,0.28417516545437627,0.946578117321294,0.13900057844246083
1.0310706131855958,-0.8160549665562808,0.6591094050518702,-1.9115075632708847,-1.0302675105883274,1.6575622112862765,-0.2825439170582218,-0.12838815469176273,0.30621557489766504,0.8122541442328055,0.45997794567111405,0.5469238856196368,0.5529002855614656,0.4284808362820323
1.0079875680468047,-0.8599990567764267,-1.6847021785742138,-0.2364787785942899,2.3407823150219857,0.24348270989954468,2.8509281290251294,-0.22799462604381432,-0.37402153956425443,0.8150785992920377,-0.7366598089860378,0.41269156953141506,0.19229587766718526,0.5000402880714299
-0.2527558804352301,1.6260069811055438,1.5451941987607163,-0.3823668866032035,2.7952273100453433,0.48656283062882716,-2.252175723666232,0.682125646745565,-0.15670374575888713,0.3373222601298514,-0.551221821855579,-0.2990018785934369,0.7750806618116836,-0.0774748178014931
2.3136774131444287,0.8657433413056657,-2.668618359155487,-1.359803481007088,1.7807535209284162,1.0137159214052371,-1.8429250739655458,0.127461979797779,0.3426977879622157,0.9229224174017671,0.1977258148267003,0.878944545473,0.4155752042273155,-0.12513288043437515
-2.0662503441093953,-0.25060623759794987,2.221396479099709,-0.3795925661865853,2.114638051024778,0.8199330550525338,-1.9613968145588414,0.14225860468415705,0.28258731008378923,0.9970127638288072,-0.3374033072538486,0.8009807871173698,0.38752317936197134,-0.3072695435284685
0.4964579323148821,-0.3401296045901254,1.3474429381344,-2.733218079844397,-1.4337759782700799,1.4009545200737192,0.27377060729209335,0.03971068100685994,0.34957801608073685,0.3266425057789625,0.20978733927645118,0.5062570186623245,0.3526010327612453,0.7585285855062714
0.604637796711875,0.9881799354482443,0.5611968203070572,-2.462444041786343,-0.16898604277614515,2.9013501269230617,-1.6924885828694793,0.04025829541087674,0.3696429305407845,-0.019759349052063613,0.10789067915242705,0.9470146070648927,-0.11096922065600406,-0.28144052200199243
0.5380214885461609,0.8722177269252018,-0.631521456513414,-1.411073812203994,-2.326482880489342,1.6119546703994274,2.0621114504001103,0.7591139388414708,0.019078937473978715,0.38972140575675834,0.30797658920487836,0.003748000658117449,0.7422698277791175,0.5951234122109089
-1.5216838542707265,-0.7878494912842289,1.6146607068609442,-1.7615951154265552,0.6988983147558758,2.008452304205857,0.45875500410138637,0.5752315967882217,0.25502018387971537,0.4678485664364056,0.9606266878367448,-0.23751530045975353,0.14269104860296078,0.020545396367696096
1.6742504794821147,0.146145114724338,-1.2523684634973296,-2.4768568537901388,-2.6550294707659168,1.9570505285169928,-0.23131079837875435,0.4737400086903035,0.17810726270205374,0.3189093315130729,-0.02361483083967028,0.621529720690082,-0.03330071009473484,0.7823261524265368
0.5542045345496387,-1.5255292657652868,2.539983773372788,-2.209112852295954,-2.3307184226564597,3.5873071309830995,-2.761456472180225,-0.14775410948296105,0.11025773968471647,-0.07497254024138965,0.45438664120791045,0.7905504378535579,0.37404572161213334,0.1692707406641796
-2.315219863762008,0.2493147926861421,0.8262572477486918,-1.6924299931650748,2.331258622452244,0.5348783897189424,1.0301726092932744,0.060008432142758715,-0.5043320544395301,0.7092819457374644,-0.4073989246696997,0.1145918888094055,-0.0014084063241259126,0.9060313634685564
-0.3922194296968633,-1.068703153644316,2.1289705157035033,-1.8056414473017213,0.811254011526052,0.2926238227658905,-1.263420936990995,-0.21518895116774991,0.391591323907939,0.21290517622596478,-0.23406742370448694,-0.5375472638567822,0.7992231619147855,-0.13227893913758038
-0.7097704500199762,-0.0018949837965891447,-1.8544727190250532,-1.1756125812274636,2.2458866675547786,1.097654810908716,1.0424915477941745,-0.27829539225302063,-0.30600743176739614,0.9624043082418602,-0.26920454119714815,0.5076680442427917,-0.5521712206042535,0.6040769942564779
1.1758629009927621,-0.8637392830694094,-0.7693997355031783,-1.5700173604238545,1.4827640899170658,0.3947857767017558,-0.7986849953428843,0.15679721434337923,-0.12226319138613206,0.8688005567462596,-0.06966514847363187,-0.8106134131087406,-0.03613951705015304,0.580298713494806
-1.564762616173504,0.14228757576327777,-1.5097158175615129,-0.09540811205727495,1.0283839287990237,0.29299709861865264,1.504501876380155,-0.08144979093147026,-0.19176319731784539,0.9357447589328987,0.20712168502961162,0.976515845033205,-0.058662969366885566,-0.008721697921837097
1.1015474697686267,-0.11678755735717705,-0.7312465438785032,-1.1623784515229287,2.656780954906624,0.24704961261944847,0.08454339499170871,0.2167201002884594,0.0884006184195571,0.9599744556993166,-0.08347682337776523,-0.7896489554691992,0.20216023323912727,0.5732515915214379
-1.079314366030367,0.46280726377610115,-1.186672200458171,-0.6007024155843537,-1.6685179466587026,3.4125254621100614,-2.7165390420394484,0.048916866809055305,-0.5627713010018506,0.89954909785298,0.09142760643332033,-0.49509100200882356,0.8465185982438936,0.17300911923643286
-2.730566274007643,1.3114072219708932,0.2887109861294741,-1.6072581981324823,2.2146993491734377,0.3310997517639771,-0.3980650923221374,-0.40781955479573273,-0.4004547008222674,0.10644415280189388,0.014555437524423344,0.007781608336085756,0.88201853626256,-0.47092556471211816
-1.186028238081513,-1.6228552118947728,0.5265436503973788,-0.19537643393450432,0.0804635513368992,3.626092165468726,0.09957807339858249,-0.3201921046719622,0.7157260423788079,0.2641521390627474,-0.5161722749326227,0.6095438510117979,0.5962178664453454,0.08091187808936608
-1.7871701172244736,1.5137162290407344,0.662437116041966,-1.4501257897444302,0.5876944016565568,1.315337901962921,-2.3079312146748414,0.2895429478939601,-0.4402053513295053,-0.016920835498530844,0.496337153249088,0.2281080856665792,0.7111623046699758,-0.4425655973690323
-1.68209658007971,0.9212358319904657,-1.8019675916380715,-1.6450478385206313,-0.9818926908535417,3.1590048345457764,-2.629181705800258,-0.6108720045904245,-0.22497888673396998,0.6300181863257744,-0.565883735786314,-0.3374496388163647,0.5061424623750161,0.5565277590706373
-0.08261198546453397,-1.438929928907007,-1.7414659160736483,-1.2387557286613389,-0.9980688871694263,2.1860229569277725,1.4303773068370762,-0.5980676961783237,-0.4905043822189972,0.2816405351071379,0.20904091695892363,0.929923870656742,-0.28369088695170946,0.10518065639796984
-1.7382194070034194,-1.3955761353336273,-1.3830072190301492,-2.000634170737164,-2.016568023303198,1.2328673802688717,0.5411912533226424,-0.49400522578344114,0.34810957210983934,0.36302177278613756,0.18841368134714603,0.9187423414510394,0.3458959333587142,-0.027727206714374703
0.7449380588558503,0.21686056110765795,0.11934180607106537,-2.22884314389294,1.7644162942181345,0.6942612231685781,1.946781290621543,0.20087521504016637,0.4356267125667228,0.42279071290000436,-0.34416975178674064,0.19883718632025155,0.8474231074139265,-0.35197305623047875
-1.4637064403648954,-1.1442216718861833,1.845974825523561,-0.2247249736009862,-1.4319380169921554,2.439012696861755,1.5338646508842237,0.030744440194431375,0.7884778868941087,0.6544262967949805,0.21392802335465064,0.23645799836564177,0.9454168720483607,-0.06715172282808488
2.2454520004383753,0.6800840269798414,1.1638777137559368,-1.5011607914522058,2.6616659329943357,1.0603264637268148,1.702792615001416,-0.6391223123332981,0.05953493992493771,0.6765215271725109,-0.16494864972633877,0.04664966417623105,-0.5490286980312488,0.8180362097876929
-2.3673410659570244,-1.538694552356936,-1.5975577911217698,-1.8128881522522542,1.079970559895644,3.6285524809360505,0.47395388477887046,-0.12342450007516764,0.632001285038046,0.21709736765373824,0.7948416949182975,-0.2941758455121079,-0.4755306927884265,-0.23570704731255637
-0.48696623643431813,-0.311897140829265,0.4546499932075849,-0.08903928855597032,-1.2674276048814412,2.438726373934187,2.5847437551401558,-0.18336251515643884,0.11867780894574237,1.1493545237903684,0.15505481963347514,0.21224047407195273,-0.7593775083144719,0.5951955846108467
0.8725780813329851,0.6983231174536049,0.12038324325806471,-2.3910615447986174,2.0689325438866395,0.1439536685240455,-2.061936077080993,0.15559584540294993,0.3947845908322475,0.24721575085951153,-0.019197811752843644,-0.016657639233514196,-0.013658582911773631,0.9995836184091408
-0.6296382538381966,-1.6662491992559283,0.7127441642443184,-0.7821978708794339,2.6684623314480294,2.220076125245541,1.1210273094013803,-0.4853231818704912,0.6661275546529216,0.5290730466540253,-0.7643879308290765,-0.32712938762735666,0.15965821169616742,0.5321716925874347
-2.144190966758225,0.5273705692961812,0.6521978544048035,-2.705198890116089,0.620628951624874,1.8350863895169458,-0.2743047979272437,0.12145455015187451,-0.22502729644377256,0.11423320713613634,-0.4854540498044324,0.5514127101132402,0.1307739197933345,0.6657150821154151
-2.6761254467632623,-1.6050564644157885,-2.5482068159078715,-0.7059231233178171,0.18981641495279034,2.18147852482507,-1.968017982704425,0.5521428893490824,0.5236286930479898,-0.0059235256915033535,0.36649862998085136,0.8536906450502805,0.18971286421768768,-0.3176477072577672
0.09823643856784336,0.5303988143328575,0.7263481429934968,-0.6942552065534517,1.859823548723757,1.6776837085653096,-0.9798438112753443,0.4985076924929373,0.3237386625981793,0.9017149197732404,-0.194344061790124,-0.40035769134277555,-0.2881491794307108,0.8478880557143186
-1.2241791900998447,-0.8787320231331512,-0.93425951675931,-0.35526652570702133,-1.4380330058173276,2.3115710239042526,0.6755840531978756,-0.3504535461027577,0.48925198749180415,0.93859879830733,-0.4418106960196411,-0.5152980916071116,0.18814716031981446,0.709839299935062
2.5432159003926444,0.5567923669500274,2.666884152363474,-1.1727831946080551,-1.883667876533419,0.49131816489622,-0.6549901632136663,-0.21844550687755293,-0.17062646462022052,0.9362811511775493,-0.5081465643067394,0.7671289932162545,0.36210925958115675,-0.14891964637299818
0.23050974245788547,-1.2009793774757533,1.657702387088817,-0.44202641213231253,-1.0995159457904287,1.2938255186448804,2.881359692245955,-0.6836057901805356,0.103434662424182,0.6796327308997646,-0.3521857925984761,0.25999638189265306,-0.2154730233850171,0.8728908437415487
0.42863475695555087,1.4982470754129813,1.9849243257663676,-3.0530461799121698,-2.4544668228528463,1.678336074508261,2.7281152852529655,-0.25849147933201166,0.19295283646193462,0.3790890987005499,-0.7218335816529384,-0.33577625974575215,0.008217078433669379,0.6050975652002402
2.4773610233054497,-0.9883206617262214,2.034423297016881,-1.5829582252137595,-0.9344952785000671,2.6344224679726174,1.6417680857970844,0.06491605121706635,-0.7254461822329834,0.31635747870582964,0.388224314659679,-0.6695071533004223,0.09237530027088571,0.626505272991737
1.537031029267982,-1.5846803811041639,2.5940732414600904,-1.552286581868818,2.191397031732881,3.5630182141275144,0.780751425800938,-0.3718773318825032,-0.3166627949113979,-0.06977096770945397,0.6108216927375164,0.6558089556174322,-0.18231129033435667,-0.4044429092342573
0.9493770255227107,-0.5510015622055158,1.1465942155891562,-1.550842906101048,-2.7066211220885625,2.2321795939374716,-1.2601545898655429,-0.44469614591083456,0.30816489220074506,0.8400733915281696,-0.20461474897350362,-0.06437731153136222,0.41082071766832295,0.8861234136377326
-1.0799004264880903,0.11717423694580797,-2.235098382612504,-0.4727496086984173,0.7709787456705701,0.12182517649373038,-2.5305397811073345,-0.1814220694105405,-0.09358203709502712,0.9149791090423077,0.9876006232245865,-0.023904414498291584,0.1535741714096799,0.02210343524731847
-0.008826825564447915,0.3773237808370964,1.9823381551823114,-0.8739090646674157,-0.7774807465212885,1.6277321764593944,2.0133028445506933,0.13232999598876072,0.4330959652735269,0.9601542408823796,0.8772472823462756,-0.2201340190981195,0.023985827767110026,-0.42591419243564677
-1.6350589429461864,-0.5058305776482448,-2.779412166604353,-2.3636475977845026,0.7296157394415235,2.002760815194342,-0.8979230411829893,-0.17931953888787772,0.3715132970250659,0.11110576144879614,0.40129569230836465,0.7632552275016484,-0.49735754663249354,-0.09507205600945128
2.4571633493648846,0.7417871946047989,2.27992022608472,-0.31565334072024553,-2.812214686382096,3.329688138128258,-1.1302998449604957,-0.3951251945702668,0.10984772181078638,1.0191847582537343,-0.22034179798125378,0.08874102611942793,0.8687657244319964,-0.43453496798049274
1.473959429709613,-1.1025537099402398,0.029441077078133926,-0.7007186791592508,-1.9251354777753353,0.005655138874426483,2.6195496823923663,0.03341987567371803,-0.4618326456350239,0.7624568439301589,-0.043300652913243816,0.9790195139651363,0.19500764830128325,0.04022265327844803
-0.19449225563202033,-0.9539346928199752,0.7326169603490738,-2.8383813268796074,-0.6179680834234693,3.0300204702303746,0.606187522002589,0.2879309816608752,0.22820566957299193,0.46465472316557044,0.8008665880196842,0.24386909948014301,0.5061134621079144,0.2073396584968589
2.1998119518668386,-0.4702227463239803,0.14797061840333026,-1.403720124591235,-1.2103207246120553,2.38570811614627,-1.2372124753287994,-0.23822354863387224,0.19571905055707634,1.0241638662113504,-0.19492098578002626,0.568488580787466,0.7687719943554819,0.21866907305673183
-2.1678516832750754,0.11527751865573221,2.317942022973392,-2.026628617108916,-1.9479563581034074,2.9074546179710885,-2.6034870975286233,0.539695758480199,0.12419387597889407,0.5271367951736088,-0.502775613157898,0.6287186829904173,-0.3924545754148095,0.44486953897572756
-1.029769839028176,0.012055039198882955,-1.7053927021754907,-1.8789871255920503,1.084053638837207,1.333301687608473,1.682053950657044,-0.42660223133600833,-0.30625235632342895,0.5367426305903801,0.5085780861103751,0.6539697495980554,-0.05771887357774049,0.5570820662809758
-1.46831452215896,-0.3250027634717525,1.390213747419184,-2.977888841028628,-2.3719485878495035,1.8020057174400426,-1.2710961057056673,0.30270214104784954,-0.123248181819122,0.2282572478012126,0.16973958405771858,-0.6301594181161693,0.670971180384753,-0.35197337464145617
2.3765115887963675,-0.15507493239529424,2.126089510388486,-0.4582042427773123,2.6854735906230283,0.5235887389979326,2.1569117068270223,0.12282479958944789,-0.1379094255677339,1.0175240450136287,0.6735898358000045,-0.5606645224486829,-0.14679394715743055,-0.45867588060879616
-1.744130231379997,-0.04206700954847031,1.0260282339450901,-1.9742829977685585,-0.4557028456411323,1.9152577563514932,2.3895373052352107,0.3964886043719471,-0.3811112654393541,0.4818078654997211,-0.09614854355312515,0.9685527653825562,-0.15644850704433824,-0.16788348008667645
1.4909834451966453,0.12659602772835643,1.3428015712029304,-1.8461839856798294,1.2039401589949148,1.0939398720208555,-0.3765917966223786,-0.5021559999003612,0.057565353605575645,0.5690133032612485,-0.09235688143201234,0.7232776778905742,-0.6788206330397171,0.08684558294426817
-2.594404858352337,0.7590682232771067,2.4899075112074613,-1.8907391884802143,0.34265073788189326,2.1317083517275752,2.4951269596617665,0.35854574067724937,-0.18316794999097097,0.7991713773719655,-0.17767956967898996,0.821479562583515,0.21766390212403453,0.49620935550271983
-2.6799646285265686,-0.05990716323684908,-2.1857398454729933,-1.173983896339452,2.2395402802192605,2.668964105611667,1.4521230398552025,0.13528763329212126,0.5419418848961745,0.8881413988392625,-0.29820326572214284,0.336110188674869,0.8011208827776692,0.3953607018396252
-0.43167775461636504,0.3287564552787692,-1.7487246164971963,-2.3460002503852593,-0.5579230015310457,0.5184690865362064,2.383074014496058,-0.20520172710834444,-0.21982780029013016,0.4309846303073368,0.4910197486309333,0.3127061250073388,0.687402117200801,-0.4342727427610047
0.3176266664002556,1.3846354987598954,-2.469646383552719,-0.719103516775137,-2.8842556948285085,0.2327384089725092,-1.0446307590609882,0.6200898238210344,0.13662325418031196,0.5795852746650573,0.5415285072498559,0.7442822084748262,-0.03041119738683154,-0.3896999218078919
0.8098397459917703,1.299391515469551,-1.7201217296320945,-2.416309201334673,-0.6085376056982206,3.245475888627116,2.484083780534426,0.41993259414726375,-0.32265119575106316,0.3716221544626637,-0.3688290032111705,0.6576918087112169,-0.5908302882979553,-0.2869254634468289
-1.0412413927875925,-1.0655445950366556,0.3380795826092826,-0.1016383943236896,-1.2221568309685682,0.9154980433476158,0.9413763893891125,-0.3626075996239168,0.4335364345884514,0.7843019033741969,-0.07116755773941738,-0.6741440377693635,0.7340581292311356,0.040294639533207235
-0.3428879823499824,-0.9426799906158819,1.2040895016123545,-1.1942203076014761,-0.019075508389016615,3.083207679726183,-0.2985344419132918,-0.2490675620828593,0.5686184230196243,0.8545779982519036,0.1337092757220275,0.5020030119245842,0.8542316994882976,0.020075088888256612
0.10633648893819192,-0.3361663830148056,-0.6450725967428181,-0.7673543122310189,-1.8722319783863146,2.617299401361961,-0.6102431684647689,0.08347386787626111,-0.20921150832450233,1.1416936293657445,0.37077317555773015,-0.045006556847335226,0.02436097958513713,0.9273123555745586
-1.3871972944901791,0.45749609121792023,-1.7612576249371747,-1.4238817850132472,-2.825889759141067,2.8388066453929057,-0.5136756157367026,-0.5486800801218986,-0.20571964337627677,0.7549292992197789,-0.4636756144670601,-0.19679459090770896,0.8315358242336404,0.23414736076697915
1.5277793422852644,0.466859103767574,-1.85783695718511,-0.5017280538803432,0.6509537207012994,2.3442874664417466,0.3668368350161706,0.27583795000950745,0.29093032917947925,1.0845960215188075,0.6233761695468477,0.02242478757176659,0.7577905397123469,-0.19144915269055365
2.8263540902482345,-1.0961545724434778,0.7544236389921046,-1.857408044696157,-0.4069674951565454,2.727822384519968,0.13207676224349996,-0.08412376695278631,-0.4246936464983962,0.8493358733516314,0.28500448039623744,-0.5095056121954465,-0.2960544776687334,0.7559948568262269
-2.7351002504657953,-0.42276058124117544,0.7889898514634464,-1.0178637272814752,-0.8567240753252992,1.4413840375700966,2.3310474680488933,-0.01124044870191071,-0.29899167031667306,1.0059785180346832,0.5604169970295688,0.571249212036144,-0.4274382851857046,-0.4205991435392485
-1.5341038570316043,0.09642841018829484,1.8035887037063945,-1.7665884023442633,1.5570933149576187,1.7615825207764282,-1.3516505081579555,0.5362855413536936,0.2095813913205306,0.6530320057142207,-0.5597835806978667,-0.40440913314821436,-0.37235918724844325,0.6200356695215716
-0.4852610136562028,1.2929758153248576,2.169676026127441,-0.4667817721976202,2.1188993608072866,3.5706127153197302,-2.198382876598323,0.7289212542836265,-0.06741485968168284,0.5910116881840198,-0.45825184477334363,0.4118685524658087,-0.3922369232835014,0.6830225020192522
-1.709770049200626,-0.3199686863036826,-1.738831341660209,-0.43044279973416133,1.9820790043960321,1.9159535904182121,-2.56818861878016,-0.16641001618080475,0.2528093187543696,1.120871416035286,0.3624507701215958,0.09573333666752182,-0.29160953262719236,0.8800161634707145
1.8754192296313588,-0.7403471488310023,-0.1933425982380288,-0.2932854415223467,0.11446547745098368,1.1430768681387415,-1.350751427635597,0.11872678505094095,-0.2661068827375668,1.0210133379964277,0.013133655678883945,0.6995668901132546,0.6861996050352228,-0.19890644885292807
-1.6762906596737448,0.6349016594499348,-2.7231279463620854,-1.079749494147091,-2.719520936223585,1.2878332778974435,1.4325789936767426,-0.11709925984159684,-0.10886215314962276,1.1111150079261578,0.21049806236964563,-0.5735511229309276,0.7673707912794315,-0.19460663867010228
1.6879130293338096,-1.7088066871158778,2.0812473040376323,-0.8438378059945069,-0.3134922640461011,2.2010414715041406,2.6226799154185687,-0.30615414080186115,-0.7033173197820385,0.03494051690851564,-0.2801901800742481,-0.7289809853158382,0.16178250955051768,0.6032467203735521
-1.699061866612453,-1.7381385710243136,-2.640800651291106,-0.1943238003507024,2.1407800935181327,1.9134745775396003,2.8759526754112446,0.023322507577775903,0.8207394154341299,0.16996390509397766,-0.015566593494764311,-0.40010553868248694,-0.7366921867726781,0.5449384011341606
1.4692109772150874,-1.2016369655745103,0.26942127423449413,-3.0069236010898606,1.2701661469481418,1.1982212939625605,0.4879625995199195,-0.15425722414231702,0.16251070973320028,0.4296816366342611,0.7126495292016949,0.4347083761331051,-0.5490507941489216,-0.04126138258420132
-2.468350680889422,-0.6070843101354315,1.5608390214884653,-0.6069463649604936,2.202939397527557,0.5220236433995888,1.1969348214593247,0.4602029114119474,0.18284451138788943,0.8343037907262849,0.9052180907288891,-0.14417885529153063,-0.2855205507743354,-0.27976897788977356
-0.5063578477195931,0.9139250412695108,-2.8694990352167746,-1.1471323227305663,2.5385908879841215,0.7577577073895373,1.6149848548009529,0.20472404143607223,-0.30277181562045413,0.9669659182846834,-0.19222304827106326,0.8828584781653391,-0.3345598270789616,0.2677329440876806
-0.30732026244425237,0.6618546925188973,-1.5878652619152795,-2.8092347894109553,2.5906153540258763,2.180524557463359,1.843345975597901,-0.17827020885443182,-0.3207472187204586,0.21763023041087468,0.8447096828650614,0.19366256121106995,-0.18347116175131498,0.4640029060952083
2.3660637550489514,-0.048147568284161446,-2.2375988585724027,-2.6335038722696016,1.899114645205764,2.7690177761064843,0.289590520015266,0.3916199339906968,0.013644566661356244,0.2187099285260718,-0.5130510013047954,0.7851179418319114,0.055438621370707326,0.3424836444770546
-1.6273787094831933,1.2385779410697517,0.7030927898281254,-0.3699867840230233,1.1057906104073862,1.9305680079502052,-2.269145900905598,0.14169269838493476,-0.8107568786044355,0.47686918904081205,0.6153560884573925,0.15454773530109403,0.7042789583530167,0.3185012256380039
-0.839927738758782,0.366079359180294,-1.9897027458127587,-2.7701488429781516,1.3010619967538397,0.3741242963238619,-0.6129881446776446,-0.18757319112408116,-0.19607996721690354,0.36708171618450686,-0.12568708786969032,0.42960706303388296,-0.6472027270562336,0.6170649539758454
-0.18293633752064764,-1.7379504150096325,2.31975769477156,-0.6764146099198145,-0.8455960852738937,2.826580178088043,-2.0377570360558575,-0.688242867317139,0.33440890389050226,-0.03578005411432131,0.8468238341341893,-0.061187745064834265,-0.27380700167390043,-0.45185747712138236
2.481154024655791,-1.5624624906275422,-2.135247042161878,-0.46229126099499407,0.6339904052919709,2.4771944863768294,0.29234188315370124,0.7730896073916885,-0.345844053853801,0.21017754450288248,-0.49355477161650385,0.5594095755259814,-0.210384520624164,0.6318251084803157
-0.6715731664827094,-0.6819924984538928,-0.3904488279526124,-1.925430368283973,1.310803995626466,3.5717998723429627,-2.1913492512156254,-0.054578075649181074,-0.3609937950952383,0.8272443997052007,0.537064021091604,-0.2900470132654394,0.4260445676752519,0.667773160361453
-0.5086738192424645,-1.1927136770853772,0.9878191061282529,-0.8600288225484314,-0.48296262843976745,2.6146026493562387,2.182616640223563,-0.35540869052315693,0.597041863096915,0.8056450020365611,-0.34660234952291435,-0.0746752500357014,-0.6721154915783063,0.6500393713597298
-0.1611923516653011,-1.598193760755658,0.0927737621188629,-2.3629849044420292,-1.4910640008686575,2.7255312674143353,-0.22303468122081815,-0.007642203266403122,0.08625823830208174,0.8337170920554243,0.3731023674677417,0.15693897555047925,0.4610903005232764,0.7896584806778731
-1.8133521758167073,0.8913642579300327,1.7114062286928298,-1.984972429748671,-0.7457014597086236,3.3455486804968677,1.5126671208816584,0.5181639184473747,-0.24880875422067733,0.6249533778275016,-0.49961885976025733,0.4757552191063468,-0.4510015990480098,0.5662468755949743
1.5251634186658545,-0.8519200914787128,-2.28326422144142,-1.6661490194091806,2.772429743209807,1.743168796468526,-2.552538688130956,0.4379748705105895,-0.5839397067049596,0.3504139855307503,0.21612701109690224,-0.34611514318017034,0.9129311654804387,-0.007078829720891969
-2.4506862081445755,0.5036214871779086,-0.9667819211465771,-0.5585224407933653,-2.777018934059283,3.2530646992265244,1.4410399916874712,-0.5879568684543359,-0.14283392531879804,0.853012722348258,0.4100196562124884,-0.28118568264673444,-0.6651958467071035,0.5570753799240298
-1.9157109026270454,0.7210118215346708,-1.826554703779705,-1.2120898021773434,-2.3383741283825135,0.5564476859872229,-1.2583759862506763,-0.3750871255749687,-0.14309397540232716,0.8990579492150205,0.5804405060422169,0.3191268780195643,0.5345496157820326,0.5248843329136642
0.9749003160515333,-1.2284844293089583,-0.661753403351037,-1.7261074188272703,0.025088296915590558,3.664069816048723,-2.2632854622751006,0.11609523469162063,-0.427795184883763,0.8885192987247997,0.3108122063261194,-0.0007652987696858024,0.6940068080804142,0.6494226182190747
2.862755917807482,-1.2805203149892388,-1.2926464951317291,-3.011507000590465,0.9398202542371115,2.612501906850375,-0.9066231616931502,-0.12087566320303082,0.28442243433497455,0.3272327445086444,-0.4167946435536595,-0.5391332115547419,0.4558022045522711,0.5725923118842385
-2.0214351331099403,-1.7430883032135664,2.251052721635206,-1.8758582443418215,0.9444927166185808,1.795067661195062,0.7836642456684726,0.4102017515149391,-0.058244738294601986,-0.10269592683726635,0.7009017699047099,-0.520889160577314,-0.185306218116798,0.45063599153280676
-2.162477328265645,-0.6707351702939719,-2.0091423561792823,-0.35739773959580345,0.46976427073171356,2.7509395922534168,2.4027027717607097,0.21941698851207772,0.5591967477430533,0.941645841175669,-0.3451857082843142,0.3524305869285675,0.76332342439355,0.4171053319792808
-2.5779114717168734,-1.4319548262929542,0.6709160538391674,-0.4082417045858686,-1.1298995423098561,1.2056905731465666,-0.8207313240070828,0.5987055211656015,0.3207213568140879,0.6826779614157992,0.045377572827344184,-0.42962186500919863,-0.24591559447782352,0.8676931769830484
1.5448747728822751,0.49701288394052545,0.989406999168033,-1.1473304767605617,-2.377259431130858,0.8804927676660009,2.24789861251656,-0.23167776752542218,0.5543005509675472,0.7638496453693706,0.5594042119860113,-0.2818136517923528,0.6594558362447197,-0.41565128812328456
-1.8875667411074508,-0.5098636591706425,-0.021986520381551244,-0.16743169006991643,2.327833248435659,0.05975624458398669,-1.5292922206549906,0.16333626772743387,0.27732965566019036,0.8664255036175953,0.5520637452481071,0.8197537587260691,-0.13817015627389842,0.06433042944331357
-2.504153585095238,-0.09298904422670606,0.10556036820071757,-1.4517996175972046,2.398824477836024,3.5935465083038434,-2.723558900588937,-0.4137594510998646,-0.2695503688047281,0.7388147657051998,0.2779226897282573,-0.6958170676483295,0.03908869212643794,0.6611124420636291
0.49587921128999435,-0.718228031725064,0.13191162770302034,-0.5819262142646826,2.4541000616800974,3.258101988630369,-0.16132881384794606,-0.17824247926028622,-0.11670665014248895,1.1036253933438775,0.008916756786648543,-0.019874205271376098,-0.12299992632705468,0.9921675894408051
-1.3941687168304342,-0.05337916428409506,0.9766086041221862,-0.9715824442633894,-2.344468403501809,0.425192794452887,2.041267122507794,0.1896871094528647,-0.1503001475910741,0.9815208051300381,0.5542011516858454,0.5811035434822654,-0.37070154408293354,-0.466647747703732
0.5028141118569298,-0.14279356437027446,-0.93836952629257,-1.5341315762566867,-2.56092364341137,2.7869943517609497,-0.0684405080070718,0.4997013280314563,-0.25649178212356216,0.7614897951396011,0.35465834692571274,0.4308008642897899,0.0009631892232079072,0.82983561296778
-2.1340053221064155,-1.5622480824423954,-1.4191812003729865,-1.8149128028212116,1.6384141700636126,0.757347750342451,0.5485919879614842,-0.19940392762997194,0.49805842615608814,0.5408188127186977,0.42314072686655624,-0.18340851610872022,0.8816885269249173,-0.09969244191316198
0.7592407340718901,0.4622238960737364,-1.9559401931419504,-0.4642874207362997,-1.7608388064085505,2.5159742252668367,1.4153213791531507,0.36847524143364,0.033451544396947884,1.1035947988679666,0.018517101606461833,-0.11033795692229248,0.6569605607115309,0.7455772755924776
-0.23900506041208303,-0.9263068539518863,-0.5591615011405198,-0.053917425404558905,2.244711554201459,1.8437034225603566,0.6347387009443715,-0.6135343496741723,0.2158544892328773,0.8366734412749806,0.39347986060035883,0.5417120892022067,0.5704940887369527,-0.47566596097502795
-0.011826106379274393,1.0389210738658905,-0.8561843032133765,-3.010185312462342,-0.4394488270523027,0.035122510984074325,-1.119755629889015,0.05606377119069249,-0.11591514361150382,0.3107146944014801,0.2869346738021005,0.34168846560589344,0.6595324923341259,0.6049251003202865
-0.7891486085224897,-1.0092646804271266,-0.7454576070526615,-2.044397258758312,-2.739902712551365,0.7208980989805424,-2.4388365670104513,-0.34488151511220644,-0.18916928013060197,0.79206999900331,0.6489931424067963,-0.19863367476823612,-0.6189525558705472,-0.3952850843863648
2.6091127390680833,0.35197977080326526,-0.7930786252112592,-0.4130906715433813,2.253138843438402,1.6797079690825194,0.6904917729082984,-0.3422773352705826,0.26039721095207274,1.0455403792221598,-0.1941817825809848,-0.5727543056796941,0.6954873482556511,0.3879990838331521
-0.6614496344795917,-0.2078927856925874,-0.70035351111982,-1.2682479538797866,2.851493203292089,0.9686752831144259,0.48070568943228587,0.011224510622614994,-0.29427543861289696,1.0260288149993155,-0.4509422453079783,-0.23656524642414872,-0.3839274805362184,0.7702516895599727
0.4627666949161795,0.930405712425336,-0.3781549716935957,-1.6151727630403592,-0.4577522797242737,2.617884245608002,-1.324232958584046,0.6835163080782949,0.10088233649145129,0.11393686792938865,0.5351282017413442,0.8007641627280291,-0.11951600288294828,0.24110265126380656
1.5991097830020355,0.4200638354234396,0.5261561620726716,-1.5224131938281236,2.4791091453383207,-0.0077077177818864594,2.408900296779908,-0.23534770808806266,0.4421376714289059,0.6587860457509541,0.20136055937215674,0.5556291764153897,-0.47910876597702373,0.6489876222311651
-1.3809095349219163,-1.4976721724985167,-0.27316370500377385,-1.540487840345176,1.1248128660843704,0.9759035411593505,2.0128285067204854,-0.06836362053507787,0.3065707324515426,0.8516911998788445,-0.3085582792115937,0.7627014900739302,-0.31011757240946763,0.476345795249465
1.5380840206650555,1.036100621641427,0.5602251495559698,-2.7053747513861395,-2.0515647218427153,1.4316014547273517,-2.706686038292665,-0.11805715243651327,0.1707317510818528,-0.026366052227771483,0.8240429225066142,0.26505916187564776,0.43126515446965225,-0.254376235353864
-1.6714289262713864,1.5720780127583072,1.6180854656603656,-0.6210237361301902,-2.816041149609862,1.1047422840562648,-1.711697049671458,0.07565297953410334,-0.7871717498999252,0.29604257334115175,0.805194927223745,0.12997556407300934,-0.5739963946475349,-0.07277101654286822
2.7752273258868603,0.9667094368195159,-1.5051543721966445,-0.8832525298171445,1.0330788263695778,0.49331314032198864,0.9535011985423507,-0.36947443205833247,0.4845193376503336,0.5312487578027514,0.8450713537857922,0.38810968885495095,-0.06077343247758293,0.3626732225191903
-0.20666385636790663,0.4576956507269294,-1.1691758263593073,-2.612591798979859,2.6760748775313608,0.34083965823287143,-1.2745727424226236,0.17066133298741004,-0.39353669453420465,0.3684826799311716,0.27596784602067814,-0.05459856850685588,0.8470734098046996,-0.45091837696145076
-0.12387799785067344,0.39683580729737855,0.5107364467656241,-2.608051069546631,-1.6293631369684822,2.974016744703986,-2.1956545085505583,0.2957373604485907,0.22389068491014008,0.13682282243958704,-0.4785289935133705,0.8728665720641496,-0.0044385533588941475,0.09536377186406496
-0.38145552138555816,-0.16073824571203432,1.3919672121274282,-1.6234848199492087,-0.19859818800240747,2.470360058960505,-1.9392578242059333,0.26639421364115495,0.5386823482872826,0.7186248187770277,0.009386459257355581,0.8946757512447607,0.30104511316629723,0.32990761488017284
-0.8752266384453047,0.42721370652057233,-0.28507618868239204,-0.8849411375115395,-1.8534301202109082,1.3503798588388598,-2.4408542917755898,0.1977412028015041,-0.5700356135857857,0.8334593588342534,-0.5582011607209809,-0.18189832396184893,0.7959104097645588,0.1478211200675729
0.15719362358408961,-0.8509708646764979,1.7378609377707819,-2.3192982352798106,-2.713029211927997,0.3183041523233987,0.001603254580637259,-0.2659943856000826,0.40350892935242166,0.474846966925347,0.01536244223801662,-0.37195176586487744,0.7099582436186648,0.5978086412526868
-2.8189334568419495,-1.504786896502599,-0.30211481962455444,-1.4873203882999253,1.4154723690954971,1.864026070840191,2.2348271433486135,0.3381628696105387,0.21658214109352486,0.9306689253686389,-0.13327996158650884,-0.45036778139177247,0.8077646970028028,-0.3562604491095265
1.3243910113813357,1.439126896115765,0.7999535744845403,-1.062272327834461,1.2046608521737157,2.105885650261771,-1.4921286625036039,-0.21645637307305865,0.734858709457563,0.10102881887991166,-0.33932879673775646,-0.5533847182980882,0.2579183486337075,0.7156112399178155
-0.5393220481870697,-1.4055000919422134,-1.2755623597059864,-0.3902829857432284,-0.997273164479807,3.724043300170451,2.0022952913541343,-0.6638106720867666,0.32186020069394955,0.5933536415721865,-0.43493809306631515,0.11807774466305382,0.8249699488274038,0.3410441099723535
2.873254434116278,1.4707813513521106,2.4146872925122733,-0.6683567644166994,1.188504045991786,2.3237916083843446,1.668908164334996,-0.7725613647341569,-0.013233681829684325,0.6783958222817692,-0.004868170147378824,-0.1443319433007,-0.49734014722181846,0.855451558548957
-2.81011006219252,-0.8768693371977657,0.9630313630347604,-0.5880932628618085,0.958825618425291,3.3923771445220336,0.17692182071954,0.49103655711060523,0.0342712266478991,0.9888473500611784,0.23775465524457665,0.06654635014011737,0.8777094638178972,0.4106950259219859
1.6519584781445098,0.27523143018912544,-1.8540135956772137,-1.1173638479728718,-2.75211333505488,3.2220946024521253,1.438919161382597,0.5050279630197773,0.07695605983710226,0.8652074077774506,0.38182473262826844,0.38080166973626767,0.5642595579988854,0.6251488727385857
-1.9809312412233093,1.6447799122279507,1.5229715240327173,-0.15563137619209,0.7792865559565834,1.6841054683760739,-0.34976262671300207,-0.18367927883785323,-0.7904848386298218,0.33478346759170946,0.2378504727189571,-0.3358430284467406,0.8099960402813299,-0.4177834697539583
-2.0938313093933743,-0.8722966197006404,2.5972490828552286,-1.1236942379878367,-1.9433319932918995,2.5011907664942554,-2.7741989067490214,0.6067362243701808,0.524878241199719,0.385492331058774,0.5697422026431918,-0.3107274378766724,0.6281435583623262,-0.4292760789582827
2.4490383192888463,1.71050058951471,0.7152873910513242,-0.9150993122698039,0.35522630558819523,0.27391954203834756,-2.260960807555588,-0.5042050709988912,0.09085475912005128,0.038209153807284846,0.43237742282764713,0.014661982882862834,0.8632858582101525,0.25994675897426595
0.14974239121885047,1.067302474223636,0.35216240133708343,-0.09970786850140412,-0.17216787849115223,2.666532198342029,-0.6922126756291371,0.7386452479311618,0.12436183777400833,0.7224764254572187,0.6699242818394464,0.28479053730188164,0.6789136527752296,0.09577086477944372
-2.439018085755408,-1.6476141599552705,2.106240703705652,-0.6377854827274567,-1.2458308218750638,3.2081366017786785,0.08173164478079409,0.7013772872093463,0.3377854933523447,0.053818747805844856,0.2709897923082624,0.7947347778118642,0.2590908238359292,0.47731866756399877
-1.017992382025486,-0.14476970243286336,-0.5052317075413653,-3.009903883361118,-2.167094073018944,2.3406545526697298,-0.5715362854398323,0.011811585198940502,-0.2631945953306463,0.1753982607664532,0.7646436693563134,0.4693183662717311,-0.42189727907928387,0.13062547951622164
-2.8860886925451457,1.022189803288132,0.21136502213790065,-1.3769774347114143,0.5098440472858026,3.6416036145901307,1.3823155651808254,-0.7180799097646404,-0.22664985628196418,0.23571908592899682,0.6405085652816136,0.5339828020167281,-0.4816437670781134,-0.2695003276177172
0.6830975182870866,0.4376484866470096,-1.9851248056122568,-1.9141194931627252,0.17081527903345428,2.9742361463303677,0.07992650857656258,0.26344967916289785,-0.4969451461389291,0.7020749430033797,0.6472887616118916,-0.4820111452048781,0.410876573510658,0.4241025304444275
-2.138139852630813,1.0431436576260253,-0.8770051084932873,-1.6437784380023368,0.1917897051185835,3.2669161270256155,-0.3622584334027952,-0.691989262857335,-0.24246308617385032,0.2614165172343567,-0.39230173530063067,0.7755051855579176,0.28315033789247795,-0.405606880864057
-0.4583520490013062,0.5914021536480636,-1.9254727597923018,-1.5589981347060298,0.7477222227830906,1.9373130483808927,-0.018367804927006404,-0.1925861188347919,-0.5363639532849108,0.7164223782408712,-0.3823308412491749,0.875591298263058,-0.1940521550811833,-0.22250116256788224
